; generated by SuperSlicer 2.3.57 on 2022-07-16 at 06:14:42 UTC

; 

; external perimeters extrusion width = 0.42mm
; perimeters extrusion width = 0.46mm
; infill extrusion width = 0.44mm
; solid infill extrusion width = 0.46mm
; top infill extrusion width = 0.44mm
; first layer extrusion width = 0.56mm

; object:{"name":"(Unsaved)2","id":"(Unsaved)2.stl id:0 copy 0","object_center":[105.000000,105.000000,0.000000],"boundingbox_center":[105.000000,105.000000,1.000000],"boundingbox_size":[113.825333,64.500000,2.000000]}
; Total objects to print: 1
M486 T1
; plater:{"center":[105.000000,105.000000,0.000000],"boundingbox_center":[105.000000,105.000000,1.000000],"boundingbox_size":[113.825333,64.500000,2.000000]}

;TYPE:Custom
M150 I255
M300 S1000 P500
G90 ; use absolute coordinates
M83 ; extruder relative mode
G21 ;Metric values
M73 ;LCD progress info
M140 S60 ; set bed temp
M190 S60 ; wait for bed temp
M300 S1000 P500
M117 Poziomowanie...
G28; home all
G29; Auto bed leveling
M420 S1; Save bed leveling mesh
G1 Z2 F240 ; moving to safe point
G1 X2 Y10 F3000 ; moving to safe point
G1 Z0.28 F240 ; moving to safe point
M117 Rozgrzewanie...
M104 S215 ; set extruder temp
M109 S215 ; wait for extruder temp
M300 S1000 P500
G92 E0.0 ; reset extruder
M117 Anty-blob...
G1 Z2.0 F3000 ; Move Z Axis up little to prevent scratching of Heat Bed
G1 X5 Y20 Z0.3 F5000.0 ; Move over to prevent blob squish
M117 Drukowanie...
M107
G21 ; set units to millimeters
G90 ; use absolute coordinates
M82 ; use absolute distances for extrusion
G92 E0
; Filament gcode
M107
;LAYER_CHANGE
;Z:0.2
;HEIGHT:0.2
;BEFORE_LAYER_CHANGE
;0.2
M117 Warstwa 1 z 10

G1 E-1 F3600
G1 Z0.2 F9000
;AFTER_LAYER_CHANGE
;0.2
G92 E0
M204 P1500
G1 X69.82 Y72.457
G1 E1 F2400
;TYPE:Skirt
;WIDTH:0.48
G1 F1200
G1 X69.545 Y72.722 E1.0125
G1 X69.127 Y73.269 E1.03501
G1 X67.09 Y76.79 E1.16807
G1 X43.831 Y121.37 E2.81278
G1 X43.635 Y122.085 E2.837
G1 X43.559 Y122.826 E2.86139
G1 X43.558 Y131.111 E3.13237
G1 X43.618 Y131.817 E3.15557
G1 X43.795 Y132.526 E3.17945
G1 X44.083 Y133.197 E3.20333
G1 X46.034 Y136.582 E3.33113
G1 X46.434 Y137.149 E3.35381
G1 X47.203 Y137.885 E3.38864
G1 X48.124 Y138.42 E3.42348
G1 X55.565 Y141.493 E3.6868
G1 X56.329 Y141.705 E3.71274
G1 X57.124 Y141.78 E3.73885
G1 X153.022 Y141.777 E6.87557
G1 X153.798 Y141.679 E6.90116
G1 X154.546 Y141.45 E6.92676
G1 X161.893 Y138.413 E7.1868
G1 X162.96 Y137.756 E7.22777
G1 X163.531 Y137.191 E7.25405
G1 X163.991 Y136.539 E7.28016
G1 X165.946 Y133.14 E7.4084
G1 X166.204 Y132.53 E7.43005
G1 X166.37 Y131.884 E7.45187
G1 X166.442 Y131.116 E7.47713
G1 X166.44 Y122.769 E7.75014
G1 X166.314 Y121.848 E7.78053
G1 X166.002 Y120.973 E7.81092
G1 X142.919 Y76.808 E9.44092
G1 X140.81 Y73.175 E9.57835
G1 X139.982 Y72.263 E9.61864
G1 X138.939 Y71.607 E9.65893
G1 X131.43 Y68.505 E9.92466
G1 X130.655 Y68.292 E9.95094
G1 X129.855 Y68.22 E9.97722
G1 X79.847 Y68.23 E11.61294
G1 X79.13 Y68.337 E11.63664
G1 X78.434 Y68.558 E11.66052
G1 X71.107 Y71.587 E11.91988
G1 X70.04 Y72.244 E11.96085
G1 X69.863 Y72.415 E11.9689
G1 X70.014 Y72.572 F9000
M204 P500
G1 X70.165 Y72.73
G1 F1200
G1 X69.873 Y73.01 E11.98213
G1 X69.486 Y73.518 E12.00303
G1 X67.477 Y76.994 E12.13436
G1 X44.245 Y121.511 E13.77681
G1 X44.065 Y122.166 E13.79902
G1 X43.995 Y122.841 E13.82123
G1 X43.995 Y131.103 E14.09146
G1 X44.048 Y131.74 E14.11236
G1 X44.208 Y132.384 E14.13408
G1 X44.47 Y132.994 E14.1558
G1 X46.762 Y136.86 E14.30277
G1 X47.463 Y137.533 E14.33458
G1 X48.304 Y138.022 E14.36638
G1 X55.707 Y141.08 E14.6284
G1 X56.404 Y141.274 E14.65207
G1 X57.13 Y141.343 E14.67591
G1 X153 Y141.34 E17.8117
G1 X153.703 Y141.253 E17.83489
G1 X154.385 Y141.044 E17.85823
G1 X161.708 Y138.017 E18.11742
G1 X162.669 Y137.429 E18.15425
G1 X163.189 Y136.919 E18.17808
G1 X163.61 Y136.324 E18.20192
G1 X165.55 Y132.955 E18.32906
G1 X165.94 Y131.805 E18.36881
G1 X166.005 Y131.109 E18.39167
G1 X166.003 Y122.794 E18.66364
G1 X165.889 Y121.954 E18.69138
G1 X165.607 Y121.159 E18.71896
G1 X142.532 Y77.01 E20.34837
G1 X140.457 Y73.433 E20.48365
G1 X139.705 Y72.601 E20.52032
G1 X138.756 Y72.004 E20.55699
G1 X131.293 Y68.92 E20.82113
G1 X130.586 Y68.724 E20.84513
G1 X129.855 Y68.657 E20.86913
G1 X79.881 Y68.666 E22.50374
G1 X79.229 Y68.762 E22.52529
G1 X78.601 Y68.962 E22.54685
G1 X71.292 Y71.983 E22.80554
G1 X70.331 Y72.571 E22.84237
G1 X70.209 Y72.688 E22.84792
M204 P1500
G1 X70.375 Y72.837 F9000
M204 P500
G1 X70.542 Y72.986
G1 F1200
G1 X69.849 Y73.762 E22.88196
G1 X67.861 Y77.203 E23.01193
G1 X44.658 Y121.654 E24.65203
G1 X44.495 Y122.245 E24.6721
G1 X44.432 Y122.855 E24.69216
G1 X44.479 Y131.668 E24.98042
G1 X44.624 Y132.249 E25.00002
G1 X44.862 Y132.799 E25.01962
G1 X47.093 Y136.575 E25.16306
G1 X47.725 Y137.183 E25.19173
G1 X48.478 Y137.621 E25.22025
G1 X55.852 Y140.667 E25.4812
G1 X56.483 Y140.844 E25.50265
G1 X57.131 Y140.906 E25.52394
G1 X152.984 Y140.903 E28.65918
G1 X153.616 Y140.825 E28.68001
G1 X154.22 Y140.639 E28.70069
G1 X161.527 Y137.619 E28.9593
G1 X162.384 Y137.098 E28.9921
G1 X162.853 Y136.639 E29.01355
G1 X163.232 Y136.105 E29.035
G1 X165.156 Y132.765 E29.16107
G1 X165.511 Y131.723 E29.19709
G1 X165.568 Y131.103 E29.21746
G1 X165.567 Y122.814 E29.48858
G1 X165.465 Y122.057 E29.51356
G1 X165.209 Y121.342 E29.53839
G1 X142.147 Y77.217 E31.16691
G1 X140.101 Y73.687 E31.30037
G1 X139.423 Y72.935 E31.33348
G1 X138.569 Y72.4 E31.36644
G1 X131.148 Y69.333 E31.62909
G1 X130.512 Y69.155 E31.65069
G1 X129.855 Y69.094 E31.6723
G1 X79.913 Y69.102 E33.30585
G1 X78.767 Y69.366 E33.34431
G1 X71.473 Y72.381 E33.60246
G1 X70.616 Y72.902 E33.63526
G1 X70.582 Y72.941 E33.63696
M204 P1500
G1 X70.741 Y73.088 F9000
M204 P500
G1 X70.901 Y73.235
G1 F1200
G1 X70.21 Y74.009 E33.67088
G1 X68.245 Y77.41 E33.79938
G1 X45.071 Y121.797 E35.43719
G1 X44.869 Y122.868 E35.47283
G1 X44.911 Y131.596 E35.75833
G1 X45.25 Y132.599 E35.79296
G1 X47.425 Y136.289 E35.93306
G1 X47.984 Y136.831 E35.95852
G1 X48.656 Y137.222 E35.98397
G1 X56.001 Y140.257 E36.24391
G1 X56.559 Y140.414 E36.26288
G1 X57.137 Y140.469 E36.28184
G1 X152.963 Y140.467 E39.41624
G1 X153.521 Y140.398 E39.43463
G1 X154.059 Y140.233 E39.45301
G1 X161.347 Y137.22 E39.71097
G1 X162.099 Y136.766 E39.73972
G1 X162.515 Y136.361 E39.75869
G1 X162.854 Y135.885 E39.7778
G1 X164.762 Y132.575 E39.90279
G1 X165.081 Y131.643 E39.93499
G1 X165.13 Y122.838 E40.22302
G1 X165.042 Y122.167 E40.24516
G1 X164.815 Y121.529 E40.2673
G1 X141.76 Y77.42 E41.89524
G1 X139.744 Y73.939 E42.02684
G1 X139.144 Y73.272 E42.05617
G1 X138.384 Y72.796 E42.08551
G1 X130.999 Y69.743 E42.3469
G1 X130.436 Y69.585 E42.36601
G1 X129.854 Y69.531 E42.38512
G1 X79.948 Y69.538 E44.0175
G1 X78.933 Y69.77 E44.05157
G1 X71.653 Y72.78 E44.30923
G1 X70.952 Y73.203 E44.33603
; INIT printing object (Unsaved)2.stl id:0 copy 0
G92 E0
G1 E-0.7 F3600
;WIPE_START
G1 F7200
G1 X70.545 Y73.645 E-0.985
;WIPE_END
G1 E-1 F3600
; printing object (Unsaved)2.stl id:0 copy 0
M486 S0
M204 P1500
G1 X83.401 Y97.307 F9000
M204 P500
G1 X96.257 Y120.969
G1 E0 F2400
;TYPE:Internal perimeter
;WIDTH:0.564
G1 F1200
G1 X104.053 Y125.47 E0.35103
G1 X104.053 Y117.653 E0.65585
G1 X105.947 Y117.653 E0.7297
G1 X105.947 Y124.427 E0.99386
G1 X106.85 Y124.949 E1.03452
G1 X113.743 Y120.969 E1.34489
G1 X114.679 Y122.591 E1.41791
G1 X107.042 Y127 E1.7618
G1 X114.679 Y131.409 E2.1057
G1 X113.743 Y133.031 E2.17872
G1 X105.947 Y128.53 E2.52975
G1 X105.947 Y136.347 E2.83457
G1 X104.053 Y136.347 E2.90842
G1 X104.053 Y128.53 E3.21324
G1 X96.257 Y133.031 E3.56427
G1 X95.321 Y131.409 E3.63729
G1 X102.958 Y127 E3.98118
G1 X95.321 Y122.591 E4.32508
G1 X96.227 Y121.021 E4.39576
G92 E0
G1 E-0.7 F3600
;WIPE_START
G1 F7200
G1 X96.749 Y121.317 E-0.985
;WIPE_END
G1 E-1 F3600
M204 P1500
G1 X102.416 Y124.159 F9000
M204 P500
G1 X108.084 Y127
G1 E0 F2400
;TYPE:External perimeter
G1 F1200
G1 X115.391 Y131.219 E0.32902
G1 X113.934 Y133.743 E0.44268
G1 X106.468 Y129.433 E0.77883
G1 X106.468 Y136.868 E1.06878
G1 X103.532 Y136.868 E1.18327
G1 X103.532 Y129.433 E1.47321
G1 X96.066 Y133.743 E1.80937
G1 X94.609 Y131.219 E1.92302
G1 X101.916 Y127 E2.25205
G1 X94.609 Y122.781 E2.58107
G1 X96.066 Y120.257 E2.69472
G1 X103.532 Y124.567 E3.03088
G1 X103.532 Y117.132 E3.32083
G1 X106.468 Y117.132 E3.43532
G1 X106.468 Y124.126 E3.70806
G1 X106.85 Y124.347 E3.72526
G1 X113.934 Y120.257 E4.04422
G1 X115.391 Y122.781 E4.15787
G1 X108.136 Y126.97 E4.48455
;WIPE_START
G1 X107.827 Y127.306 F9000
;WIPE_END
G92 E0
G1 E-0.7 F3600
;WIPE_START
G1 F7200
G1 X108.353 Y127.594 E-0.985
;WIPE_END
G1 E-1 F3600
M204 P1500
G1 X110.937 Y129.258 F9000
M204 P500
G1 X113.522 Y130.922
G1 E0 F2400
;TYPE:Solid infill
;WIDTH:0.548645
G1 F1200
G1 X114.155 Y131.556 E0.03401
G1 X113.886 Y132.023 E0.05447
G1 X112.39 Y130.527 E0.13471
G1 X110.647 Y129.521 E0.21108
G1 X113.616 Y132.49 E0.37038
G1 X113.604 Y132.511 E0.37132
G1 X111.94 Y131.551 E0.44418
G1 X108.291 Y127.902 E0.63995
G92 E0
G1 E-0.7 F3600
;WIPE_START
G1 F7200
G1 X108.715 Y128.326 E-0.985
;WIPE_END
G1 E-1 F3600
M204 P1500
G1 X111.435 Y125.519 F9000
M204 P500
G1 X114.155 Y122.712
G1 E0 F2400
G1 F1200
G1 X113.177 Y121.735 E0.05246
G1 X112.71 Y122.004 E0.07292
G1 X113.524 Y122.818 E0.11658
G1 X113.057 Y123.088 E0.13704
G1 X112.243 Y122.274 E0.1807
G1 X111.776 Y122.544 E0.20116
G1 X112.59 Y123.358 E0.24482
G1 X112.123 Y123.627 E0.26528
G1 X111.309 Y122.814 E0.30894
G1 X110.842 Y123.083 E0.3294
G1 X111.655 Y123.897 E0.37306
G1 X111.188 Y124.167 E0.39352
G1 X110.374 Y123.353 E0.43718
G1 X109.907 Y123.623 E0.45765
G1 X110.721 Y124.437 E0.5013
G1 X110.254 Y124.706 E0.52177
G1 X109.44 Y123.892 E0.56542
G1 X108.973 Y124.162 E0.58589
G1 X109.787 Y124.976 E0.62954
G1 X109.319 Y125.246 E0.65001
G1 X108.506 Y124.432 E0.69366
G1 X108.038 Y124.702 E0.71413
G1 X108.852 Y125.515 E0.75779
G1 X108.385 Y125.785 E0.77825
G1 X107.571 Y124.971 E0.82191
G1 X107.104 Y125.241 E0.84237
G1 X108.082 Y126.219 E0.89483
G92 E0
G1 E-0.7 F3600
;WIPE_START
G1 F7200
G1 X107.658 Y125.795 E-0.985
;WIPE_END
G1 E-1 F3600
M204 P1500
G1 X106.724 Y122.282 F9000
M204 P500
G1 X105.791 Y118.769
G1 E0 F2400
G1 F1200
G1 X105.055 Y118.033 E0.03948
G1 X104.433 Y118.033 E0.06305
G1 X104.433 Y118.149 E0.06743
G1 X105.567 Y119.282 E0.12822
G1 X105.567 Y120.019 E0.15617
G1 X104.433 Y118.886 E0.21696
G1 X104.433 Y119.623 E0.24491
G1 X105.567 Y120.756 E0.3057
G1 X105.567 Y121.493 E0.33365
G1 X104.433 Y120.36 E0.39444
G1 X104.433 Y121.097 E0.4224
G1 X105.567 Y122.23 E0.48318
G1 X105.567 Y122.967 E0.51114
G1 X104.433 Y121.834 E0.57192
G1 X104.433 Y122.571 E0.59988
G1 X105.791 Y123.928 E0.67269
M204 P1500
G1 X105 Y123.506 F9000
M204 P500
G1 X104.209 Y123.083
G1 F1200
G1 X107.451 Y126.325 E0.84657
G1 X106.983 Y126.594 E0.86703
G1 X104.433 Y124.044 E1.00383
G1 X104.433 Y124.781 E1.03178
G1 X110.197 Y130.544 E1.34095
G1 X108.453 Y129.538 E1.41732
G1 X104.433 Y125.518 E1.63296
G1 X104.433 Y126.129 E1.65612
G1 X104.135 Y125.956 E1.66921
G1 X106.709 Y128.531 E1.80735
G1 X105.567 Y127.871 E1.8574
G1 X105.567 Y128.125 E1.86704
G1 X102.391 Y124.95 E2.0374
G1 X100.647 Y123.943 E2.11377
G1 X105.567 Y128.862 E2.37766
G1 X105.567 Y129.599 E2.40562
G1 X103.243 Y127.275 E2.53028
G1 X102.775 Y127.545 E2.55075
G1 X103.589 Y128.359 E2.5944
G1 X103.122 Y128.628 E2.61487
G1 X102.308 Y127.815 E2.65852
G1 X101.841 Y128.084 E2.67899
G1 X102.655 Y128.898 E2.72264
G1 X102.188 Y129.168 E2.74311
G1 X101.374 Y128.354 E2.78677
G1 X100.907 Y128.624 E2.80723
G1 X101.721 Y129.438 E2.85089
G1 X101.253 Y129.707 E2.87135
G1 X100.44 Y128.893 E2.91501
G1 X99.972 Y129.163 E2.93547
G1 X100.786 Y129.977 E2.97913
G1 X100.319 Y130.247 E2.99959
G1 X99.505 Y129.433 E3.04325
G1 X99.038 Y129.703 E3.06371
G1 X99.852 Y130.516 E3.10737
G1 X99.385 Y130.786 E3.12783
G1 X98.571 Y129.972 E3.17149
G1 X98.104 Y130.242 E3.19195
G1 X98.917 Y131.056 E3.23561
G1 X98.45 Y131.326 E3.25607
G1 X97.636 Y130.512 E3.29973
G1 X97.169 Y130.782 E3.32019
G1 X97.983 Y131.595 E3.36385
G1 X97.516 Y131.865 E3.38431
G1 X96.702 Y131.051 E3.42797
G1 X96.235 Y131.321 E3.44844
G1 X97.049 Y132.135 E3.49209
G1 X96.581 Y132.405 E3.51256
G1 X95.604 Y131.427 E3.56501
G92 E0
G1 E-0.7 F3600
;WIPE_START
G1 F7200
G1 X96.028 Y131.851 E-0.985
;WIPE_END
G1 E-1 F3600
M204 P1500
G1 X99.291 Y129.218 F9000
M204 P500
G1 X102.553 Y126.586
G1 E0 F2400
G1 F1200
G1 X98.904 Y122.936 E0.19577
G1 X97.16 Y121.93 E0.27214
G1 X100.197 Y124.967 E0.43507
G1 X98.454 Y123.96 E0.51144
G1 X96.245 Y121.751 E0.62995
G1 X95.975 Y122.218 E0.65041
G1 X97.322 Y123.566 E0.72269
G92 E0
G1 E-0.7 F3600
;WIPE_START
G1 F7200
G1 X96.898 Y123.141 E-0.985
;WIPE_END
G1 E-1 F3600
M204 P1500
G1 X100.554 Y126.06 F9000
M204 P500
G1 X104.209 Y128.979
G1 E0 F2400
G1 F1200
G1 X105.567 Y130.336 E0.07281
G1 X105.567 Y131.073 E0.10076
G1 X104.433 Y129.94 E0.16155
G1 X104.433 Y130.677 E0.1895
G1 X105.567 Y131.81 E0.25029
G1 X105.567 Y132.547 E0.27824
G1 X104.433 Y131.414 E0.33903
G1 X104.433 Y132.15 E0.36699
G1 X105.567 Y133.284 E0.42777
G1 X105.567 Y134.02 E0.45573
G1 X104.433 Y132.887 E0.51652
G1 X104.433 Y133.624 E0.54447
G1 X105.567 Y134.757 E0.60526
G1 X105.567 Y135.494 E0.63321
G1 X104.433 Y134.361 E0.694
G1 X104.433 Y135.098 E0.72195
G1 X105.302 Y135.967 E0.76854
G1 X104.565 Y135.967 E0.7965
G1 X104.209 Y135.611 E0.81557
G92 E0
G1 E-0.7 F3600
;WIPE_START
G1 F7200
G1 X104.565 Y135.967 E-0.93888
G1 X104.662 Y135.967 E-0.985
;WIPE_END
G1 E-1 F3600
M204 P1500
G1 X111.492 Y133.688 F9000
M204 P500
G1 X118.321 Y131.409
G1 E0 F2400
;TYPE:Internal perimeter
;WIDTH:0.564
G1 F1200
G1 X125.055 Y127.521 E0.30323
G1 X125.055 Y126.479 E0.3439
G1 X118.321 Y122.591 E0.64713
G1 X119.257 Y120.969 E0.72015
G1 X126.15 Y124.949 E1.03052
G1 X127.053 Y124.427 E1.07118
G1 X127.053 Y117.653 E1.33534
G1 X128.947 Y117.653 E1.40919
G1 X128.947 Y124.427 E1.67334
G1 X129.85 Y124.949 E1.71401
G1 X136.743 Y120.969 E2.02438
G1 X137.679 Y122.591 E2.09739
G1 X130.945 Y126.479 E2.40062
G1 X130.945 Y127.521 E2.44129
G1 X137.679 Y131.409 E2.74452
G1 X136.743 Y133.031 E2.81754
G1 X128.947 Y128.53 E3.16857
G1 X128.947 Y136.347 E3.47339
G1 X127.053 Y136.347 E3.54724
G1 X127.053 Y128.53 E3.85206
G1 X119.257 Y133.031 E4.20309
G1 X118.351 Y131.461 E4.27377
G92 E0
G1 E-0.7 F3600
;WIPE_START
G1 F7200
G1 X118.868 Y131.157 E-0.985
;WIPE_END
G1 E-1 F3600
M204 P1500
G1 X124.168 Y130.295 F9000
M204 P500
G1 X129.468 Y129.433
G1 E0 F2400
;TYPE:External perimeter
G1 F1200
G1 X129.468 Y136.868 E0.28995
G1 X126.532 Y136.868 E0.40443
G1 X126.532 Y129.433 E0.69438
G1 X119.066 Y133.743 E1.03054
G1 X117.609 Y131.219 E1.14419
G1 X124.534 Y127.221 E1.45601
G1 X124.534 Y126.779 E1.47321
G1 X117.609 Y122.781 E1.78504
G1 X119.066 Y120.257 E1.89869
G1 X126.15 Y124.347 E2.21765
G1 X126.532 Y124.126 E2.23485
G1 X126.532 Y117.132 E2.50759
G1 X129.468 Y117.132 E2.62208
G1 X129.468 Y124.126 E2.89483
G1 X129.85 Y124.347 E2.91203
G1 X136.934 Y120.257 E3.23098
G1 X138.391 Y122.781 E3.34464
G1 X131.466 Y126.779 E3.65646
G1 X131.466 Y127.221 E3.67366
G1 X138.391 Y131.219 E3.98548
G1 X136.934 Y133.743 E4.09914
G1 X129.52 Y129.463 E4.43295
;WIPE_START
G1 X129.074 Y129.363 F9000
;WIPE_END
G92 E0
G1 E-0.7 F3600
;WIPE_START
G1 F7200
G1 X129.09 Y129.963 E-0.985
;WIPE_END
G1 E-1 F3600
M204 P1500
G1 X132.552 Y125.767 F9000
M204 P500
G1 X136.013 Y121.571
G1 E0 F2400
;TYPE:Solid infill
;WIDTH:0.545793
G1 F1200
G1 X136.991 Y122.548 E0.05218
G1 X136.524 Y122.818 E0.07254
G1 X135.71 Y122.004 E0.11597
G1 X135.243 Y122.274 E0.13633
G1 X136.057 Y123.088 E0.17976
G1 X135.59 Y123.358 E0.20012
G1 X134.776 Y122.544 E0.24355
G1 X134.309 Y122.814 E0.2639
G1 X135.123 Y123.627 E0.30733
G1 X134.655 Y123.897 E0.32769
G1 X133.842 Y123.083 E0.37112
G1 X133.374 Y123.353 E0.39148
G1 X134.188 Y124.167 E0.43491
G1 X133.721 Y124.437 E0.45527
G1 X132.907 Y123.623 E0.4987
G1 X132.44 Y123.892 E0.51905
G1 X133.254 Y124.706 E0.56248
G1 X132.787 Y124.976 E0.58284
G1 X131.973 Y124.162 E0.62627
G1 X131.506 Y124.432 E0.64663
G1 X132.319 Y125.246 E0.69006
G1 X131.852 Y125.515 E0.71042
G1 X131.038 Y124.702 E0.75385
G1 X130.571 Y124.971 E0.7742
G1 X131.385 Y125.785 E0.81764
G1 X130.918 Y126.055 E0.83799
G1 X129.94 Y125.077 E0.89018
G92 E0
