; generated by SuperSlicer 2.3.57 on 2022-06-28 at 14:39:55 UTC

; 

; external perimeters extrusion width = 0.42mm
; perimeters extrusion width = 0.46mm
; infill extrusion width = 0.44mm
; solid infill extrusion width = 0.46mm
; top infill extrusion width = 0.44mm
; support material extrusion width = 0.38mm
; first layer extrusion width = 0.56mm

; object:{"name":"Feeder 2 v7","id":"Feeder 2 v7.stl id:0 copy 0","object_center":[105.000000,105.000000,0.000000],"boundingbox_center":[105.000000,105.000000,10.500000],"boundingbox_size":[63.099998,73.199997,21.000000]}
; Total objects to print: 1
M486 T1
; plater:{"center":[105.000000,105.000000,0.000000],"boundingbox_center":[105.000000,105.000000,10.500000],"boundingbox_size":[63.099998,73.199997,21.000000]}

;TYPE:Custom
M150 I255
M300 S1000 P500
G90 ; use absolute coordinates
M83 ; extruder relative mode
G21 ;Metric values
M73 ;LCD progress info
M140 S70 ; set bed temp
M190 S70 ; wait for bed temp
M300 S1000 P500
M117 Poziomowanie...
G28; home all
G29; Auto bed leveling
M420 S1; Save bed leveling mesh
G1 Z2 F240 ; moving to safe point
G1 X2 Y10 F3000 ; moving to safe point
G1 Z0.28 F240 ; moving to safe point
M117 Rozgrzewanie...
M104 S240 ; set extruder temp
M109 S240 ; wait for extruder temp
M300 S1000 P500
G92 E0.0 ; reset extruder
M117 Anty-blob...
G1 Y210 E15.0 F1500.0 ; intro line
G1 X2.3 F5000 ; intro line
G1 Y10 E30 F1200.0 ; intro line
G92 E0.0; reset extruder
G1 Z2.0 F3000 ; Move Z Axis up little to prevent scratching of Heat Bed
G1 X5 Y20 Z0.3 F5000.0 ; Move over to prevent blob squish
M117 Drukowanie...
M107
G21 ; set units to millimeters
G90 ; use absolute coordinates
M82 ; use absolute distances for extrusion
G92 E0
; Filament gcode
M107
;LAYER_CHANGE
;Z:0.2
;HEIGHT:0.2
;BEFORE_LAYER_CHANGE
;0.2
M117 Warstwa 1 z 142

G1 E-1 F3600
G1 Z0.2 F9000
;AFTER_LAYER_CHANGE
;0.2
G92 E0
M204 P1500
G1 X66.916 Y69.631
G1 E1 F2400
;TYPE:Skirt
;WIDTH:0.48
G1 F1200
G1 X66.533 Y70.195 E1.02228
G1 X66.278 Y70.826 E1.04457
G1 X66.154 Y71.701 E1.07347
G1 X66.166 Y105.847 E2.19036
G1 X71.829 Y140.595 E3.34191
G1 X72.053 Y141.402 E3.36929
G1 X72.456 Y142.25 E3.40001
G1 X73.219 Y143.248 E3.44111
G1 X74.143 Y143.999 E3.48005
G1 X75.225 Y144.525 E3.51943
G1 X76.395 Y144.789 E3.55866
G1 X97.396 Y144.818 E4.24557
G1 X135.098 Y141.49 E5.48355
G1 X136.222 Y141.243 E5.5212
G1 X137.196 Y140.796 E5.55624
G1 X138.23 Y140 E5.59892
G1 X139.023 Y138.986 E5.64103
G1 X139.319 Y138.416 E5.66205
G1 X139.594 Y137.63 E5.6893
G1 X139.767 Y136.393 E5.73014
G1 X139.768 Y79.86 E7.57927
G1 X139.601 Y78.592 E7.62111
G1 X139.41 Y78.004 E7.64135
G1 X139.043 Y77.249 E7.66877
G1 X138.517 Y76.512 E7.6984
G1 X137.717 Y75.753 E7.73447
G1 X136.816 Y75.199 E7.76906
G1 X135.824 Y74.841 E7.80356
G1 X95.629 Y65.316 E9.15472
G1 X94.454 Y65.181 E9.19338
G1 X78.926 Y65.182 E9.70129
G1 X77.895 Y65.29 E9.73523
G1 X77.211 Y65.48 E9.75844
G1 X67.989 Y68.804 E10.07906
G1 X67.409 Y69.16 E10.10134
G1 X66.959 Y69.589 E10.12166
; INIT printing object Feeder 2 v7.stl id:0 copy 0
G92 E0
G1 E-0.7 F3600
;WIPE_START
G1 F7200
M204 P500
G1 X66.614 Y70.08 E-0.985
;WIPE_END
G1 E-1 F3600
; printing object Feeder 2 v7.stl id:0 copy 0
M486 S0
M204 P1500
G1 X67.994 Y70.895 F9000
M204 P500
G1 X69.373 Y71.71
G1 E0 F2400
;TYPE:Support material
;WIDTH:0.564
G1 F1200
G1 X76.537 Y71.71 E0.27938
G1 X76.537 Y72.588 E0.31362
G1 X76.526 Y72.783 E0.32122
G1 X76.495 Y72.963 E0.32837
G1 X76.442 Y73.139 E0.3355
G1 X76.367 Y73.314 E0.34294
G1 X76.276 Y73.472 E0.35006
G1 X76.166 Y73.62 E0.35726
G1 X76.039 Y73.754 E0.36445
G1 X75.898 Y73.873 E0.37165
G1 X75.521 Y74.12 E0.3892
G1 X75.497 Y74.138 E0.39037
G1 X75.305 Y74.299 E0.40015
G1 X75.284 Y74.32 E0.40131
G1 X75.112 Y74.502 E0.41109
G1 X75.092 Y74.525 E0.41225
G1 X74.943 Y74.726 E0.42203
G1 X74.926 Y74.751 E0.42319
G1 X74.801 Y74.968 E0.43297
G1 X74.788 Y74.995 E0.43413
G1 X74.688 Y75.225 E0.44391
G1 X74.678 Y75.253 E0.44508
G1 X74.559 Y75.652 E0.4613
G1 X73.541 Y75.652 E0.501
G1 X73.24 Y75.952 E0.51756
G1 X73.24 Y101.712 E1.52209
G1 X73.541 Y102.013 E1.53865
G1 X74.559 Y102.013 E1.57835
G1 X74.606 Y102.171 E1.5848
G1 X74.678 Y102.411 E1.59457
G1 X74.688 Y102.439 E1.59574
G1 X74.788 Y102.669 E1.60552
G1 X74.801 Y102.696 E1.60668
G1 X74.926 Y102.913 E1.61646
G1 X74.943 Y102.938 E1.61762
G1 X75.092 Y103.139 E1.6274
G1 X75.112 Y103.162 E1.62856
G1 X75.284 Y103.344 E1.63834
G1 X75.305 Y103.365 E1.6395
G1 X75.497 Y103.526 E1.64928
G1 X75.521 Y103.544 E1.65044
G1 X75.898 Y103.791 E1.668
G1 X76.039 Y103.91 E1.6752
G1 X76.166 Y104.044 E1.68239
G1 X76.276 Y104.192 E1.68959
G1 X76.368 Y104.352 E1.69678
G1 X76.441 Y104.521 E1.70398
G1 X76.494 Y104.698 E1.71118
G1 X76.526 Y104.88 E1.71838
G1 X76.537 Y105.073 E1.72592
G1 X76.537 Y105.571 E1.74532
G1 X69.373 Y105.571 E2.0247
G1 X69.373 Y71.77 E3.34277
M204 P1500
G1 X72.942 Y71.87 F9000
M204 P500
G1 X76.511 Y71.971
G1 F1200
G1 X69.623 Y71.971 E3.61138
G1 X69.623 Y72.492 E3.6317
G1 X76.287 Y72.492 E3.89158
G1 X76.287 Y72.581 E3.89505
G1 X76.277 Y72.754 E3.9018
G1 X76.251 Y72.906 E3.90782
G1 X76.219 Y73.013 E3.91218
G1 X69.623 Y73.013 E4.16938
G1 X69.623 Y73.534 E4.1897
G1 X75.903 Y73.534 E4.43458
G1 X75.867 Y73.572 E4.43662
G1 X75.748 Y73.672 E4.44268
G1 X75.378 Y73.915 E4.45995
G1 X75.342 Y73.942 E4.46169
G1 X75.207 Y74.055 E4.46855
G1 X69.623 Y74.055 E4.68631
G1 X69.623 Y74.576 E4.70663
G1 X74.743 Y74.576 E4.90627
G1 X74.713 Y74.62 E4.90831
G1 X74.581 Y74.849 E4.91866
G1 X74.561 Y74.889 E4.92039
G1 X74.471 Y75.097 E4.92923
G1 X69.623 Y75.097 E5.11827
G1 X69.623 Y75.618 E5.13859
G1 X73.22 Y75.618 E5.27886
G1 X72.99 Y75.848 E5.29155
G1 X72.99 Y76.139 E5.3029
G1 X69.623 Y76.139 E5.4342
G1 X69.623 Y76.66 E5.45452
G1 X72.99 Y76.66 E5.58582
G1 X72.99 Y77.181 E5.60614
G1 X69.623 Y77.181 E5.73744
G1 X69.623 Y77.702 E5.75776
G1 X72.99 Y77.702 E5.88906
G1 X72.99 Y78.224 E5.90938
G1 X69.623 Y78.224 E6.04068
G1 X69.623 Y78.745 E6.061
G1 X72.99 Y78.745 E6.1923
G1 X72.99 Y79.266 E6.21262
G1 X69.623 Y79.266 E6.34393
G1 X69.623 Y79.787 E6.36424
G1 X72.99 Y79.787 E6.49555
G1 X72.99 Y80.308 E6.51587
G1 X69.623 Y80.308 E6.64717
G1 X69.623 Y80.829 E6.66749
G1 X72.99 Y80.829 E6.79879
G1 X72.99 Y81.35 E6.81911
G1 X69.623 Y81.35 E6.95041
G1 X69.623 Y81.871 E6.97073
G1 X72.99 Y81.871 E7.10203
G1 X72.99 Y82.392 E7.12235
G1 X69.623 Y82.392 E7.25365
G1 X69.623 Y82.913 E7.27397
G1 X72.99 Y82.913 E7.40527
G1 X72.99 Y83.434 E7.42559
G1 X69.623 Y83.434 E7.55689
G1 X69.623 Y83.955 E7.57721
G1 X72.99 Y83.955 E7.70851
G1 X72.99 Y84.477 E7.72883
G1 X69.623 Y84.477 E7.86013
G1 X69.623 Y84.998 E7.88045
G1 X72.99 Y84.998 E8.01176
G1 X72.99 Y85.519 E8.03208
G1 X69.623 Y85.519 E8.16338
G1 X69.623 Y86.04 E8.1837
G1 X72.99 Y86.04 E8.315
G1 X72.99 Y86.561 E8.33532
G1 X69.623 Y86.561 E8.46662
G1 X69.623 Y87.082 E8.48694
G1 X72.99 Y87.082 E8.61824
G1 X72.99 Y87.603 E8.63856
G1 X69.623 Y87.603 E8.76986
G1 X69.623 Y88.124 E8.79018
G1 X72.99 Y88.124 E8.92148
G1 X72.99 Y88.645 E8.9418
G1 X69.623 Y88.645 E9.0731
G1 X69.623 Y89.166 E9.09342
G1 X72.99 Y89.166 E9.22472
G1 X72.99 Y89.687 E9.24504
G1 X69.623 Y89.687 E9.37634
G1 X69.623 Y90.208 E9.39666
G1 X72.99 Y90.208 E9.52797
G1 X72.99 Y90.729 E9.54828
G1 X69.623 Y90.729 E9.67959
G1 X69.623 Y91.251 E9.69991
G1 X72.99 Y91.251 E9.83121
G1 X72.99 Y91.772 E9.85153
G1 X69.623 Y91.772 E9.98283
G1 X69.623 Y92.293 E10.00315
G1 X72.99 Y92.293 E10.13445
G1 X72.99 Y92.814 E10.15477
G1 X69.623 Y92.814 E10.28607
G1 X69.623 Y93.335 E10.30639
G1 X72.99 Y93.335 E10.43769
G1 X72.99 Y93.856 E10.45801
G1 X69.623 Y93.856 E10.58931
G1 X69.623 Y94.377 E10.60963
G1 X72.99 Y94.377 E10.74093
G1 X72.99 Y94.898 E10.76125
G1 X69.623 Y94.898 E10.89255
G1 X69.623 Y95.419 E10.91287
G1 X72.99 Y95.419 E11.04417
G1 X72.99 Y95.94 E11.06449
G1 X69.623 Y95.94 E11.1958
G1 X69.623 Y96.461 E11.21612
G1 X72.99 Y96.461 E11.34742
G1 X72.99 Y96.982 E11.36774
G1 X69.623 Y96.982 E11.49904
G1 X69.623 Y97.503 E11.51936
G1 X72.99 Y97.503 E11.65066
G1 X72.99 Y98.025 E11.67098
G1 X69.623 Y98.025 E11.80228
G1 X69.623 Y98.546 E11.8226
G1 X72.99 Y98.546 E11.9539
G1 X72.99 Y99.067 E11.97422
G1 X69.623 Y99.067 E12.10552
G1 X69.623 Y99.588 E12.12584
G1 X72.99 Y99.588 E12.25714
G1 X72.99 Y100.109 E12.27746
G1 X69.623 Y100.109 E12.40876
G1 X69.623 Y100.63 E12.42908
G1 X72.99 Y100.63 E12.56038
G1 X72.99 Y101.151 E12.5807
G1 X69.623 Y101.151 E12.71201
G1 X69.623 Y101.672 E12.73232
G1 X72.99 Y101.672 E12.86363
G1 X72.99 Y101.816 E12.86923
G1 X73.367 Y102.193 E12.89004
G1 X69.623 Y102.193 E13.03605
G1 X69.623 Y102.714 E13.05637
G1 X74.535 Y102.714 E13.2479
G1 X74.561 Y102.775 E13.25048
G1 X74.581 Y102.815 E13.25221
G1 X74.713 Y103.045 E13.26256
G1 X74.738 Y103.082 E13.26429
G1 X74.852 Y103.235 E13.27176
G1 X69.623 Y103.235 E13.47567
G1 X69.623 Y103.756 E13.49599
G1 X75.389 Y103.756 E13.72085
G1 X75.748 Y103.992 E13.73758
G1 X75.867 Y104.092 E13.74364
G1 X75.974 Y104.205 E13.7497
G1 X76.027 Y104.278 E13.75322
G1 X69.623 Y104.278 E14.00296
G1 X69.623 Y104.799 E14.02328
G1 X76.258 Y104.799 E14.282
G1 X76.277 Y104.909 E14.28638
G1 X76.301 Y105.32 E14.30241
G1 X69.399 Y105.32 E14.57157
G92 E0
G1 E-0.7 F3600
;WIPE_START
G1 F7200
G1 X69.999 Y105.32 E-0.985
;WIPE_END
G1 E-1 F3600
M204 P1500
G1 X73.04 Y109.628 F9000
M204 P500
G1 X76.08 Y113.935
G1 E0 F2400
;TYPE:Internal perimeter
G1 F1200
G1 X76.269 Y113.746 E0.01042
G1 X76.476 Y113.616 E0.01995
G1 X76.707 Y113.536 E0.02948
G1 X76.998 Y113.503 E0.04088
G1 X97.471 Y113.516 E0.83923
G1 X97.548 Y113.529 E0.84231
G1 X97.804 Y113.62 E0.8529
G1 X98.033 Y113.766 E0.86348
G1 X98.091 Y113.82 E0.86655
G1 X98.289 Y114.075 E0.87916
G1 X99.267 Y115.663 E0.95188
G1 X99.497 Y115.928 E0.96557
G1 X99.741 Y116.151 E0.97847
G1 X100.009 Y116.345 E0.99137
G1 X100.298 Y116.508 E1.00428
G1 X100.602 Y116.636 E1.01718
G1 X100.92 Y116.729 E1.03009
G1 X101.246 Y116.786 E1.04299
G1 X101.551 Y116.803 E1.05489
G1 X134.502 Y116.803 E2.33984
G1 X134.816 Y116.838 E2.35214
G1 X134.89 Y116.86 E2.35516
G1 X135.131 Y116.976 E2.36557
G1 X135.322 Y117.128 E2.37511
G1 X135.489 Y117.337 E2.38553
G1 X135.526 Y117.405 E2.38855
G1 X135.614 Y117.657 E2.39897
G1 X135.647 Y117.948 E2.41038
G1 X135.647 Y136.252 E3.12416
G1 X135.612 Y136.566 E3.13646
G1 X135.59 Y136.64 E3.13948
G1 X135.464 Y136.901 E3.15079
G1 X135.42 Y136.965 E3.15381
G1 X135.231 Y137.154 E3.16423
G1 X135.024 Y137.284 E3.17377
G1 X134.793 Y137.364 E3.18329
G1 X134.502 Y137.397 E3.19471
G1 X101.551 Y137.397 E4.47965
G1 X101.246 Y137.414 E4.49155
G1 X100.92 Y137.471 E4.50446
G1 X100.602 Y137.564 E4.51736
G1 X100.298 Y137.692 E4.53026
G1 X100.009 Y137.855 E4.54317
G1 X99.741 Y138.049 E4.55607
G1 X99.497 Y138.272 E4.56898
G1 X99.267 Y138.537 E4.58266
G1 X98.289 Y140.125 E4.65539
G1 X98.105 Y140.362 E4.66709
G1 X97.895 Y140.534 E4.67767
G1 X97.826 Y140.572 E4.68074
G1 X97.548 Y140.671 E4.69223
G1 X97.471 Y140.684 E4.69531
G1 X76.975 Y140.697 E5.49453
G1 X76.85 Y140.69 E5.49942
G1 X76.567 Y140.625 E5.51073
G1 X76.496 Y140.596 E5.51375
G1 X76.269 Y140.454 E5.52417
G1 X76.096 Y140.281 E5.53371
G1 X75.966 Y140.074 E5.54324
G1 X75.886 Y139.843 E5.55277
G1 X75.853 Y139.552 E5.56418
G1 X75.853 Y114.625 E6.53621
G1 X75.86 Y114.5 E6.5411
G1 X75.92 Y114.239 E6.55152
G1 X76.036 Y113.999 E6.56194
G1 X76.046 Y113.984 E6.56263
M204 P1500
G1 X75.833 Y113.834 F9000
M204 P500
G1 X75.621 Y113.683
;TYPE:External perimeter
G1 F1200
G1 X75.681 Y113.598 E6.56668
G1 X75.942 Y113.337 E6.58111
G1 X76.249 Y113.144 E6.59522
G1 X76.59 Y113.024 E6.60933
G1 X76.969 Y112.982 E6.62417
G1 X97.515 Y112.994 E7.42539
G1 X97.681 Y113.023 E7.43195
G1 X98.035 Y113.149 E7.4466
G1 X98.351 Y113.352 E7.46126
G1 X98.475 Y113.465 E7.46781
G1 X98.718 Y113.778 E7.48324
G1 X99.688 Y115.353 E7.55538
G1 X99.871 Y115.563 E7.56624
G1 X100.071 Y115.747 E7.57683
G1 X100.291 Y115.906 E7.58741
G1 X100.527 Y116.039 E7.598
G1 X100.778 Y116.145 E7.60858
G1 X101.038 Y116.221 E7.61917
G1 X101.306 Y116.267 E7.62975
G1 X101.566 Y116.282 E7.63991
G1 X134.531 Y116.282 E8.92542
G1 X134.918 Y116.325 E8.94057
G1 X135.077 Y116.371 E8.94702
G1 X135.41 Y116.532 E8.96145
G1 X135.693 Y116.757 E8.97556
G1 X135.923 Y117.046 E8.98998
G1 X136.003 Y117.191 E8.99644
G1 X136.126 Y117.54 E9.01086
G1 X136.168 Y117.919 E9.0257
G1 X136.168 Y136.281 E9.74176
G1 X136.125 Y136.668 E9.75691
G1 X136.079 Y136.827 E9.76336
G1 X135.915 Y137.167 E9.7781
G1 X135.819 Y137.302 E9.78455
G1 X135.558 Y137.563 E9.79898
G1 X135.251 Y137.756 E9.81309
G1 X134.91 Y137.876 E9.8272
G1 X134.531 Y137.918 E9.84204
G1 X101.566 Y137.918 E11.12754
G1 X101.306 Y137.933 E11.1377
G1 X101.038 Y137.979 E11.14829
G1 X100.778 Y138.055 E11.15888
G1 X100.527 Y138.161 E11.16946
G1 X100.291 Y138.294 E11.18005
G1 X100.071 Y138.453 E11.19063
G1 X99.871 Y138.637 E11.20122
G1 X99.688 Y138.847 E11.21208
G1 X98.718 Y140.422 E11.28422
G1 X98.48 Y140.728 E11.29933
G1 X98.189 Y140.966 E11.31398
G1 X98.043 Y141.048 E11.32054
G1 X97.681 Y141.177 E11.33551
G1 X97.515 Y141.206 E11.34207
G1 X76.961 Y141.218 E12.1436
G1 X76.777 Y141.208 E12.15078
G1 X76.408 Y141.124 E12.16551
G1 X76.256 Y141.06 E12.17197
G1 X75.942 Y140.863 E12.18639
G1 X75.687 Y140.608 E12.2005
G1 X75.494 Y140.301 E12.21461
G1 X75.374 Y139.96 E12.22872
G1 X75.332 Y139.581 E12.24356
G1 X75.332 Y114.611 E13.2173
G1 X75.342 Y114.427 E13.22448
G1 X75.425 Y114.066 E13.23891
G1 X75.586 Y113.732 E13.25339
;WIPE_START
G1 X75.724 Y113.693 F9000
;WIPE_END
G92 E0
G1 E-0.7 F3600
;WIPE_START
G1 F7200
G1 X76.068 Y113.494 E-0.88856
G1 X76.24 Y113.386 E-0.985
;WIPE_END
G1 E-1 F3600
M204 P1500
G1 X105.426 Y115.179 F9000
M204 P500
G1 X134.612 Y116.973
G1 E0 F2400
;TYPE:Solid infill
;WIDTH:0.562135
G1 F1200
G1 X135.079 Y117.439 E0.02564
G1 X135.186 Y117.585 E0.03266
G1 X135.241 Y117.742 E0.03914
G1 X135.267 Y117.969 E0.04802
G1 X135.267 Y118.364 E0.06337
G1 X134.086 Y117.183 E0.12825
G1 X133.349 Y117.183 E0.15689
G1 X135.267 Y119.101 E0.26228
G1 X135.267 Y119.838 E0.29092
G1 X132.612 Y117.183 E0.43682
G1 X131.875 Y117.183 E0.46546
G1 X135.267 Y120.575 E0.65185
G1 X135.267 Y121.312 E0.68049
G1 X131.138 Y117.183 E0.9074
G1 X130.402 Y117.183 E0.93604
G1 X135.267 Y122.048 E1.20345
G1 X135.267 Y122.785 E1.23209
G1 X129.665 Y117.183 E1.54
G1 X128.928 Y117.183 E1.56864
G1 X135.267 Y123.522 E1.91706
G1 X135.267 Y124.259 E1.9457
G1 X128.191 Y117.183 E2.33462
G1 X127.454 Y117.183 E2.36326
G1 X135.267 Y124.996 E2.79268
G1 X135.267 Y125.733 E2.82133
G1 X126.717 Y117.183 E3.29126
G1 X125.98 Y117.183 E3.3199
G1 X135.267 Y126.47 E3.83033
G1 X135.267 Y127.207 E3.85897
G1 X125.243 Y117.183 E4.40991
G1 X124.506 Y117.183 E4.43856
G1 X135.267 Y127.944 E5.03
G1 X135.267 Y128.681 E5.05864
G1 X123.769 Y117.183 E5.69059
G1 X123.032 Y117.183 E5.71923
G1 X135.267 Y129.418 E6.39169
G1 X135.267 Y130.155 E6.42033
G1 X122.295 Y117.183 E7.13329
G1 X121.559 Y117.183 E7.16193
G1 X135.267 Y130.891 E7.91539
G1 X135.267 Y131.628 E7.94403
G1 X120.822 Y117.183 E8.738
G1 X120.085 Y117.183 E8.76664
G1 X135.267 Y132.365 E9.60111
G1 X135.267 Y133.102 E9.62975
G1 X119.348 Y117.183 E10.50473
G1 X118.611 Y117.183 E10.53337
G1 X135.267 Y133.839 E11.44885
G1 X135.267 Y134.576 E11.4775
G1 X117.874 Y117.183 E12.43348
G1 X117.137 Y117.183 E12.46212
G1 X135.267 Y135.313 E13.45862
G1 X135.267 Y136.05 E13.48726
G1 X116.4 Y117.183 E14.52425
G1 X115.663 Y117.183 E14.55289
G1 X135.15 Y136.671 E15.62401
G1 X135.142 Y136.69 E15.62482
G1 X134.986 Y136.858 E15.63374
G1 X134.858 Y136.939 E15.63963
G1 X134.727 Y136.984 E15.645
G1 X114.926 Y117.183 E16.73336
G1 X114.189 Y117.183 E16.762
G1 X134.022 Y137.017 E17.85213
G1 X133.286 Y137.017 E17.88077
G1 X113.452 Y117.183 E18.9709
G1 X112.716 Y117.183 E18.99954
G1 X132.549 Y137.017 E20.08967
G1 X131.812 Y137.017 E20.11831
G1 X111.979 Y117.183 E21.20844
G1 X111.242 Y117.183 E21.23708
G1 X131.075 Y137.017 E22.32721
G1 X130.338 Y137.017 E22.35585
G1 X110.505 Y117.183 E23.44598
G1 X109.768 Y117.183 E23.47463
G1 X129.601 Y137.017 E24.56476
G1 X128.864 Y137.017 E24.5934
G1 X109.031 Y117.183 E25.68353
G1 X108.294 Y117.183 E25.71217
G1 X128.127 Y137.017 E26.8023
G1 X127.39 Y137.017 E26.83094
G1 X107.557 Y117.183 E27.92107
G1 X106.82 Y117.183 E27.94971
