; generated by SuperSlicer 2.3.57 on 2022-07-05 at 10:55:01 UTC

; 

; external perimeters extrusion width = 0.42mm
; perimeters extrusion width = 0.46mm
; infill extrusion width = 0.44mm
; solid infill extrusion width = 0.46mm
; top infill extrusion width = 0.44mm
; first layer extrusion width = 0.56mm

; object:{"name":"Gyro","id":"Gyro.stl id:0 copy 0","object_center":[105.000000,105.000000,0.000000],"boundingbox_center":[105.000000,105.000000,5.000000],"boundingbox_size":[25.222755,25.223454,10.000000]}
; Total objects to print: 1
M486 T1
; plater:{"center":[105.000000,105.000000,0.000000],"boundingbox_center":[105.000000,105.000000,5.000000],"boundingbox_size":[25.222755,25.223454,10.000000]}

;TYPE:Custom
M150 I255
M300 S1000 P500
G90 ; use absolute coordinates
M83 ; extruder relative mode
G21 ;Metric values
M73 ;LCD progress info
M140 S60 ; set bed temp
M190 S60 ; wait for bed temp
M300 S1000 P500
M117 Poziomowanie...
G28; home all
G29; Auto bed leveling
M420 S1; Save bed leveling mesh
G1 Z2 F240 ; moving to safe point
G1 X2 Y10 F3000 ; moving to safe point
G1 Z0.28 F240 ; moving to safe point
M117 Rozgrzewanie...
M104 S215 ; set extruder temp
M109 S215 ; wait for extruder temp
M300 S1000 P500
G92 E0.0 ; reset extruder
M117 Anty-blob...
G1 Y210 E15.0 F1500.0 ; intro line
G1 X2.3 F5000 ; intro line
G1 Y10 E30 F1200.0 ; intro line
G92 E0.0; reset extruder
G1 Z2.0 F3000 ; Move Z Axis up little to prevent scratching of Heat Bed
G1 X5 Y20 Z0.3 F5000.0 ; Move over to prevent blob squish
M117 Drukowanie...
M107
G21 ; set units to millimeters
G90 ; use absolute coordinates
M82 ; use absolute distances for extrusion
G92 E0
; Filament gcode
;LAYER_CHANGE
;Z:0.2
;HEIGHT:0.2
;BEFORE_LAYER_CHANGE
;0.2
M117 Warstwa 1 z 50

G1 E-1 F3600
G1 Z0.2 F9000
;AFTER_LAYER_CHANGE
;0.2
G92 E0
M204 P1500
G1 X93.909 Y93.374
G1 E1 F2400
;TYPE:Skirt
;WIDTH:0.48
G1 F1200
G1 X92.905 Y94.422 E1.04749
G1 X91.925 Y95.661 E1.09916
G1 X90.995 Y97.124 E1.15587
G1 X90.324 Y98.457 E1.20468
G1 X89.792 Y99.813 E1.25233
G1 X89.356 Y101.335 E1.3041
G1 X89.051 Y103.043 E1.36086
G1 X88.938 Y104.569 E1.41091
G1 X88.963 Y106.007 E1.45793
G1 X89.167 Y107.735 E1.51486
G1 X89.51 Y109.27 E1.56631
G1 X89.966 Y110.672 E1.61451
G1 X90.548 Y112.022 E1.66262
G1 X91.394 Y113.546 E1.71961
G1 X92.298 Y114.841 E1.7713
G1 X93.273 Y115.984 E1.82043
G1 X94.305 Y116.992 E1.86761
G1 X95.669 Y118.08 E1.92467
G1 X96.992 Y118.93 E1.97614
G1 X98.33 Y119.618 E2.02533
G1 X99.942 Y120.251 E2.08198
G1 X101.47 Y120.675 E2.13386
G1 X102.942 Y120.935 E2.18273
G1 X104.705 Y121.065 E2.24055
G1 X106.161 Y121.025 E2.2882
G1 X107.727 Y120.834 E2.33981
G1 X109.419 Y120.448 E2.39657
G1 X110.829 Y119.973 E2.44524
G1 X112.165 Y119.381 E2.49303
G1 X113.54 Y118.609 E2.5446
G1 X114.959 Y117.608 E2.60141
G1 X116.086 Y116.63 E2.65023
G1 X117.094 Y115.578 E2.69787
G1 X118.073 Y114.339 E2.74954
G1 X119.004 Y112.876 E2.80625
G1 X119.675 Y111.543 E2.85507
G1 X120.207 Y110.187 E2.90271
G1 X120.642 Y108.665 E2.95448
G1 X120.947 Y106.957 E3.01124
G1 X121.061 Y105.431 E3.06129
G1 X121.035 Y103.993 E3.10832
G1 X120.831 Y102.265 E3.16525
G1 X120.489 Y100.73 E3.21669
G1 X120.033 Y99.328 E3.26489
G1 X119.451 Y97.978 E3.313
G1 X118.603 Y96.45 E3.37015
G1 X117.7 Y95.159 E3.42168
G1 X116.719 Y94.009 E3.47112
G1 X115.693 Y93.008 E3.51799
G1 X114.33 Y91.92 E3.57506
G1 X113.006 Y91.07 E3.62652
G1 X111.664 Y90.38 E3.67586
G1 X110.056 Y89.749 E3.73236
G1 X108.524 Y89.324 E3.78439
G1 X107.052 Y89.064 E3.83327
G1 X105.237 Y88.935 E3.89279
G1 X103.833 Y88.975 E3.93873
G1 X102.267 Y89.167 E3.99034
G1 X100.575 Y89.554 E4.04711
G1 X99.165 Y90.029 E4.09577
G1 X97.833 Y90.619 E4.14341
G1 X96.459 Y91.391 E4.19498
G1 X95.039 Y92.392 E4.25179
G1 X93.954 Y93.334 E4.2988
G1 X94.097 Y93.499 F9000
M204 P500
G1 X94.241 Y93.664
G1 F1200
G1 X94.212 Y93.689 E4.30006
G1 X93.236 Y94.708 E4.34621
G1 X92.284 Y95.91 E4.39635
G1 X91.373 Y97.343 E4.45189
G1 X90.724 Y98.635 E4.49918
G1 X90.206 Y99.952 E4.54547
G1 X89.782 Y101.433 E4.59586
G1 X89.485 Y103.101 E4.6513
G1 X89.375 Y104.574 E4.6996
G1 X89.399 Y105.976 E4.74546
G1 X89.598 Y107.662 E4.801
G1 X89.931 Y109.154 E4.851
G1 X90.373 Y110.512 E4.89771
G1 X90.939 Y111.828 E4.94458
G1 X91.764 Y113.315 E5.00018
G1 X92.644 Y114.573 E5.05041
G1 X93.59 Y115.684 E5.09813
G1 X94.594 Y116.663 E5.14399
G1 X95.92 Y117.722 E5.19951
G1 X97.21 Y118.551 E5.24967
G1 X98.504 Y119.217 E5.29727
G1 X100.081 Y119.836 E5.35269
G1 X101.566 Y120.249 E5.40309
G1 X102.99 Y120.501 E5.4504
G1 X104.712 Y120.628 E5.50687
G1 X106.127 Y120.59 E5.55317
G1 X107.651 Y120.404 E5.60339
G1 X109.304 Y120.026 E5.65885
G1 X110.67 Y119.566 E5.70599
G1 X111.968 Y118.991 E5.75243
G1 X113.306 Y118.24 E5.80261
G1 X114.692 Y117.262 E5.85811
G1 X115.781 Y116.317 E5.90526
G1 X116.763 Y115.292 E5.9517
G1 X117.714 Y114.09 E6.00184
G1 X118.626 Y112.657 E6.05738
G1 X119.273 Y111.37 E6.10452
G1 X119.792 Y110.048 E6.15096
G1 X120.215 Y108.571 E6.2012
G1 X120.514 Y106.899 E6.25679
G1 X120.624 Y105.426 E6.30509
G1 X120.599 Y104.024 E6.35095
G1 X120.401 Y102.338 E6.40649
G1 X120.068 Y100.846 E6.45649
G1 X119.624 Y99.484 E6.50334
G1 X119.059 Y98.172 E6.55007
G1 X118.234 Y96.685 E6.60567
G1 X117.355 Y95.427 E6.6559
G1 X116.405 Y94.313 E6.70377
G1 X115.405 Y93.337 E6.74948
G1 X114.075 Y92.275 E6.80514
G1 X112.789 Y91.449 E6.85516
G1 X111.486 Y90.78 E6.90305
G1 X109.918 Y90.164 E6.95818
G1 X108.428 Y89.75 E7.00873
G1 X107 Y89.498 E7.05618
G1 X105.238 Y89.372 E7.11395
G1 X103.867 Y89.411 E7.1588
G1 X102.343 Y89.597 E7.20902
G1 X100.695 Y89.974 E7.26433
G1 X99.325 Y90.436 E7.31162
G1 X98.031 Y91.009 E7.35792
G1 X96.693 Y91.76 E7.4081
G1 X95.306 Y92.738 E7.4636
G1 X94.286 Y93.624 E7.50781
; INIT printing object Gyro.stl id:0 copy 0
G92 E0
G1 E-0.7 F3600
;WIPE_START
G1 F7200
G1 X94.212 Y93.689 E-0.74681
G1 X93.865 Y94.051 E-0.985
;WIPE_END
G1 E-1 F3600
; printing object Gyro.stl id:0 copy 0
M486 S0
M204 P1500
G1 X95.947 Y95.74 F9000
M204 P500
G1 X98.029 Y97.43
G1 E0 F2400
;TYPE:Internal perimeter
;WIDTH:0.564
G1 F1200
G1 X97.423 Y98.026 E0.03313
G1 X96.77 Y98.81 E0.07295
G1 X96.197 Y99.656 E0.11278
G1 X95.711 Y100.554 E0.1526
G1 X95.316 Y101.496 E0.19242
G1 X95.017 Y102.472 E0.23224
G1 X94.816 Y103.473 E0.27206
G1 X94.714 Y104.489 E0.31188
G1 X94.714 Y105.511 E0.3517
G1 X94.816 Y106.527 E0.39153
G1 X95.017 Y107.528 E0.43135
G1 X95.316 Y108.504 E0.47117
G1 X95.711 Y109.446 E0.51099
G1 X96.197 Y110.344 E0.55081
G1 X96.77 Y111.19 E0.59063
G1 X97.423 Y111.974 E0.63045
G1 X98.151 Y112.69 E0.67027
G1 X98.947 Y113.331 E0.7101
G1 X99.801 Y113.889 E0.74992
G1 X100.707 Y114.361 E0.78974
G1 X101.656 Y114.74 E0.82956
G1 X102.63 Y115.021 E0.86912
G1 X103.311 Y115.158 E0.89619
G1 X104.319 Y115.275 E0.93575
G1 X105.34 Y115.292 E0.97558
G1 X106.357 Y115.208 E1.0154
G1 X107.362 Y115.023 E1.05522
G1 X108.343 Y114.74 E1.09504
G1 X109.291 Y114.361 E1.13486
G1 X110.197 Y113.889 E1.17468
G1 X111.052 Y113.331 E1.2145
G1 X111.847 Y112.69 E1.25432
G1 X112.575 Y111.974 E1.29415
G1 X113.229 Y111.19 E1.33397
G1 X113.802 Y110.344 E1.37379
G1 X114.288 Y109.446 E1.41361
G1 X114.682 Y108.504 E1.45343
G1 X114.982 Y107.528 E1.49325
G1 X115.183 Y106.527 E1.53307
G1 X115.284 Y105.511 E1.5729
G1 X115.284 Y104.489 E1.61272
G1 X115.183 Y103.473 E1.65254
G1 X114.982 Y102.472 E1.69236
G1 X114.682 Y101.496 E1.73218
G1 X114.288 Y100.554 E1.772
G1 X113.802 Y99.656 E1.81182
G1 X113.229 Y98.81 E1.85164
G1 X112.575 Y98.026 E1.89147
G1 X111.847 Y97.31 E1.93129
G1 X111.052 Y96.669 E1.97111
G1 X110.197 Y96.111 E2.01093
G1 X109.291 Y95.639 E2.05075
G1 X108.343 Y95.26 E2.09057
G1 X107.368 Y94.979 E2.13013
G1 X106.688 Y94.842 E2.1572
G1 X105.68 Y94.725 E2.19677
G1 X104.659 Y94.708 E2.23659
G1 X103.641 Y94.792 E2.27641
G1 X102.637 Y94.977 E2.31623
G1 X101.656 Y95.26 E2.35605
G1 X100.707 Y95.639 E2.39587
G1 X99.801 Y96.111 E2.43569
G1 X98.947 Y96.669 E2.47552
G1 X98.151 Y97.31 E2.51534
G1 X98.072 Y97.388 E2.51969
M204 P1500
G1 X98.254 Y97.573 F9000
M204 P500
G1 X98.437 Y97.759
;TYPE:External perimeter
G1 F1200
G1 X97.807 Y98.379 E2.55415
G1 X97.187 Y99.124 E2.59195
G1 X96.643 Y99.927 E2.62976
G1 X96.182 Y100.779 E2.66756
G1 X95.807 Y101.673 E2.70537
G1 X95.523 Y102.6 E2.74317
G1 X95.331 Y103.551 E2.78097
G1 X95.235 Y104.515 E2.81878
G1 X95.235 Y105.485 E2.85658
G1 X95.331 Y106.449 E2.89438
G1 X95.523 Y107.4 E2.93219
G1 X95.807 Y108.327 E2.96999
G1 X96.182 Y109.221 E3.0078
G1 X96.643 Y110.073 E3.0456
G1 X97.187 Y110.876 E3.0834
G1 X97.807 Y111.621 E3.12121
G1 X98.498 Y112.301 E3.15901
G1 X99.253 Y112.909 E3.19681
G1 X100.065 Y113.439 E3.23462
G1 X100.925 Y113.886 E3.27242
G1 X101.825 Y114.246 E3.31023
G1 X102.754 Y114.514 E3.34794
G1 X103.393 Y114.643 E3.37333
G1 X104.353 Y114.754 E3.41104
G1 X105.323 Y114.771 E3.44884
G1 X106.289 Y114.69 E3.48665
G1 X107.242 Y114.515 E3.52445
G1 X108.174 Y114.246 E3.56226
G1 X109.074 Y113.886 E3.60006
G1 X109.934 Y113.439 E3.63786
G1 X110.745 Y112.909 E3.67567
G1 X111.5 Y112.301 E3.71347
G1 X112.192 Y111.621 E3.75128
G1 X112.812 Y110.876 E3.78908
G1 X113.356 Y110.073 E3.82688
G1 X113.817 Y109.221 E3.86469
G1 X114.192 Y108.327 E3.90249
G1 X114.476 Y107.4 E3.94029
G1 X114.667 Y106.449 E3.9781
G1 X114.763 Y105.485 E4.0159
G1 X114.763 Y104.515 E4.05371
G1 X114.667 Y103.551 E4.09151
G1 X114.476 Y102.6 E4.12931
G1 X114.192 Y101.673 E4.16712
G1 X113.817 Y100.779 E4.20492
G1 X113.356 Y99.927 E4.24272
G1 X112.812 Y99.124 E4.28053
G1 X112.192 Y98.379 E4.31833
G1 X111.5 Y97.699 E4.35614
G1 X110.745 Y97.091 E4.39394
G1 X109.934 Y96.561 E4.43174
G1 X109.074 Y96.114 E4.46955
G1 X108.174 Y95.754 E4.50735
G1 X107.244 Y95.486 E4.54506
G1 X106.606 Y95.357 E4.57045
G1 X105.645 Y95.246 E4.60817
G1 X104.676 Y95.229 E4.64597
G1 X103.71 Y95.31 E4.68377
G1 X102.756 Y95.485 E4.72158
G1 X101.825 Y95.754 E4.75938
G1 X100.925 Y96.114 E4.79719
G1 X100.065 Y96.561 E4.83499
G1 X99.253 Y97.091 E4.87279
G1 X98.498 Y97.699 E4.9106
G1 X98.48 Y97.717 E4.9116
;WIPE_START
G1 X98.052 Y97.653 F9000
;WIPE_END
M204 P1500
G1 X97.663 Y97.204
M204 P500
G1 X97.275 Y96.756
;TYPE:Internal perimeter
G1 F1200
G1 X97.992 Y96.135 E4.94859
G1 X98.823 Y95.536 E4.98855
G1 X99.398 Y95.185 E5.01481
G1 X99.993 Y94.869 E5.04107
G1 X100.931 Y94.457 E5.08103
G1 X101.897 Y94.134 E5.12076
G1 X102.888 Y93.898 E5.16049
G1 X103.903 Y93.753 E5.20046
G1 X104.575 Y93.707 E5.22671
G1 X105.248 Y93.702 E5.25297
G1 X106.277 Y93.772 E5.29317
G1 X106.943 Y93.868 E5.31943
G1 X107.603 Y94.003 E5.34568
G1 X108.588 Y94.285 E5.38565
G1 X109.539 Y94.651 E5.42538
G1 X110.452 Y95.102 E5.46511
G1 X111.322 Y95.634 E5.50484
G1 X112.144 Y96.245 E5.5448
G1 X112.653 Y96.686 E5.57106
G1 X113.139 Y97.161 E5.59755
G1 X113.595 Y97.664 E5.62405
G1 X114.017 Y98.189 E5.6503
G1 X114.597 Y99.034 E5.69027
G1 X115.095 Y99.923 E5.73
G1 X115.511 Y100.853 E5.76973
G1 X115.844 Y101.822 E5.80969
G1 X116.014 Y102.473 E5.83595
G1 X116.145 Y103.134 E5.86221
G1 X116.268 Y104.151 E5.90217
G1 X116.298 Y105.17 E5.9419
G1 X116.237 Y106.187 E5.98163
G1 X116.085 Y107.194 E6.02136
G1 X115.841 Y108.19 E6.06133
G1 X115.632 Y108.83 E6.08758
G1 X115.384 Y109.456 E6.11384
G1 X114.935 Y110.384 E6.15404
G1 X114.597 Y110.966 E6.1803
G1 X114.224 Y111.527 E6.20656
G1 X113.595 Y112.336 E6.24652
G1 X112.895 Y113.085 E6.2865
G1 X112.4 Y113.541 E6.31274
G1 X111.878 Y113.966 E6.339
G1 X111.037 Y114.552 E6.37897
G1 X110.152 Y115.057 E6.41869
G1 X109.226 Y115.48 E6.45842
G1 X108.264 Y115.818 E6.49815
G1 X107.277 Y116.069 E6.53788
G1 X106.265 Y116.23 E6.57785
G1 X105.594 Y116.285 E6.60411
G1 X104.92 Y116.3 E6.63036
G1 X103.897 Y116.247 E6.67033
G1 X102.888 Y116.102 E6.71006
G1 X101.891 Y115.865 E6.75002
G1 X101.25 Y115.661 E6.77628
G1 X100.621 Y115.418 E6.80254
G1 X99.69 Y114.976 E6.84274
G1 X99.105 Y114.642 E6.869
G1 X98.542 Y114.274 E6.89525
G1 X97.728 Y113.651 E6.93522
G1 X96.974 Y112.956 E6.97519
G1 X96.514 Y112.465 E7.00144
G1 X96.085 Y111.946 E7.0277
G1 X95.493 Y111.109 E7.06766
G1 X94.981 Y110.228 E7.10739
G1 X94.551 Y109.305 E7.14712
G1 X94.206 Y108.346 E7.18685
G1 X93.948 Y107.361 E7.22658
G1 X93.779 Y106.35 E7.26655
G1 X93.719 Y105.682 E7.29269
G1 X93.698 Y105 E7.3193
G1 X93.719 Y104.318 E7.3459
G1 X93.779 Y103.65 E7.37204
G1 X93.949 Y102.633 E7.41225
G1 X94.11 Y101.98 E7.4385
G1 X94.309 Y101.336 E7.46476
G1 X94.687 Y100.377 E7.50496
G1 X94.981 Y99.771 E7.53122
G1 X95.31 Y99.184 E7.55747
G1 X95.877 Y98.33 E7.59744
G1 X96.515 Y97.536 E7.63717
G1 X97.229 Y96.795 E7.6773
M204 P1500
G1 X97.059 Y96.598 F9000
M204 P500
G1 X96.888 Y96.401
;TYPE:External perimeter
G1 F1200
G1 X97.668 Y95.726 E7.71754
G1 X98.535 Y95.102 E7.75919
G1 X99.14 Y94.732 E7.78682
G1 X99.765 Y94.4 E7.81445
G1 X100.743 Y93.971 E7.8561
G1 X101.754 Y93.632 E7.89766
G1 X102.791 Y93.386 E7.93923
G1 X103.848 Y93.234 E7.98087
G1 X104.555 Y93.186 E8.00851
G1 X105.264 Y93.181 E8.03614
G1 X106.331 Y93.253 E8.07787
G1 X107.033 Y93.354 E8.1055
G1 X107.727 Y93.497 E8.13313
G1 X108.754 Y93.79 E8.17478
G1 X109.748 Y94.174 E8.21634
G1 X110.704 Y94.645 E8.2579
G1 X111.613 Y95.201 E8.29947
G1 X112.471 Y95.838 E8.34111
G1 X113.006 Y96.302 E8.36875
G1 X113.514 Y96.799 E8.39646
G1 X113.992 Y97.325 E8.42417
G1 X114.435 Y97.878 E8.45181
G1 X115.04 Y98.759 E8.49345
G1 X115.561 Y99.688 E8.53502
G1 X115.996 Y100.661 E8.57658
G1 X116.343 Y101.671 E8.61823
G1 X116.522 Y102.357 E8.64586
G1 X116.66 Y103.052 E8.67349
G1 X116.788 Y104.112 E8.71514
G1 X116.82 Y105.178 E8.7567
G1 X116.756 Y106.242 E8.79826
G1 X116.596 Y107.295 E8.83983
G1 X116.342 Y108.333 E8.88147
G1 X116.122 Y109.006 E8.9091
G1 X115.862 Y109.665 E8.93674
G1 X115.396 Y110.629 E8.97847
G1 X115.04 Y111.241 E9.0061
G1 X114.648 Y111.832 E9.03373
G1 X113.992 Y112.674 E9.07538
G1 X113.262 Y113.455 E9.11704
G1 X112.741 Y113.935 E9.14465
G1 X112.192 Y114.382 E9.17229
G1 X111.316 Y114.993 E9.21393
G1 X110.39 Y115.521 E9.2555
G1 X109.421 Y115.964 E9.29706
G1 X108.415 Y116.318 E9.33862
G1 X107.382 Y116.58 E9.38019
G1 X106.327 Y116.747 E9.42183
G1 X105.621 Y116.806 E9.44946
G1 X104.913 Y116.822 E9.4771
G1 X103.846 Y116.766 E9.51874
G1 X102.791 Y116.614 E9.56031
G1 X101.752 Y116.367 E9.60195
G1 X101.077 Y116.153 E9.62958
G1 X100.416 Y115.897 E9.65722
G1 X99.449 Y115.438 E9.69894
G1 X98.834 Y115.087 E9.72658
G1 X98.24 Y114.7 E9.75421
G1 X97.393 Y114.05 E9.79585
G1 X96.607 Y113.326 E9.83751
G1 X96.123 Y112.809 E9.86513
G1 X95.671 Y112.263 E9.89276
G1 X95.054 Y111.391 E9.93441
G1 X94.519 Y110.47 E9.97597
G1 X94.069 Y109.504 E10.01754
G1 X93.707 Y108.501 E10.0591
G1 X93.438 Y107.47 E10.10066
G1 X93.262 Y106.416 E10.14231
G1 X93.199 Y105.713 E10.16983
G1 X93.177 Y105 E10.19766
G1 X93.199 Y104.287 E10.22548
G1 X93.262 Y103.584 E10.253
G1 X93.438 Y102.528 E10.29473
G1 X93.607 Y101.84 E10.32236
G1 X93.817 Y101.163 E10.35
G1 X94.21 Y100.168 E10.39173
G1 X94.519 Y99.53 E10.41936
G1 X94.865 Y98.912 E10.44699
G1 X95.456 Y98.022 E10.48864
G1 X96.123 Y97.191 E10.5302
G1 X96.844 Y96.442 E10.57074
;WIPE_START
G1 X97.27 Y96.521 F9000
;WIPE_END
M204 P1500
G1 X97.501 Y96.771
M204 P500
G1 X97.732 Y97.021
;TYPE:Gap fill
;WIDTH:0.577628
G1 F1200
G1 X97.691 Y97.059 E10.57294
G1 X97.571 Y97.17 E10.5795
G1 X97.318 Y97.425 E10.59385
G1 X97.066 Y97.68 E10.6082
G1 X97.049 Y97.698 E10.60922
G1 X96.895 Y97.87 E10.61845
G1 X96.637 Y98.185 E10.63475
G1 X96.379 Y98.501 E10.65105
G1 X96.284 Y98.628 E10.6574
G1 X96.03 Y99.007 E10.67565
G1 X95.776 Y99.385 E10.69389
G1 X95.739 Y99.446 E10.69675
G1 X95.585 Y99.726 E10.70954
G1 X95.431 Y100.006 E10.72233
G1 X95.348 Y100.167 E10.72954
G1 X95.266 Y100.327 E10.73675
G1 X95.255 Y100.35 E10.73778
G1 X95.203 Y100.465 E10.74284
G1 X95.151 Y100.581 E10.74791
G1 X95.002 Y100.948 E10.76375
G1 X94.853 Y101.314 E10.7796
G1 X94.844 Y101.338 E10.78062
G1 X94.786 Y101.504 E10.78765
G1 X94.691 Y101.809 E10.80043
G1 X94.597 Y102.115 E10.81322
G1 X94.567 Y102.226 E10.81783
G1 X94.53 Y102.362 E10.82348
G1 X94.488 Y102.549 E10.83114
G1 X94.446 Y102.736 E10.8388
G1 X94.386 Y103.061 E10.85205
G1 X94.327 Y103.387 E10.8653
G1 X94.323 Y103.412 E10.86632
G1 X94.302 Y103.564 E10.87243
G1 X94.282 Y103.715 E10.87854
G1 X94.252 Y104.032 E10.89127
G1 X94.222 Y104.349 E10.904
G1 X94.214 Y104.477 E10.90917
