; generated by SuperSlicer 2.3.57 on 2022-07-18 at 14:49:23 UTC

; 

; external perimeters extrusion width = 0.42mm
; perimeters extrusion width = 0.46mm
; infill extrusion width = 0.44mm
; solid infill extrusion width = 0.46mm
; top infill extrusion width = 0.44mm
; first layer extrusion width = 0.56mm

; object:{"name":"SecretHeart","id":"SecretHeart.stl id:0 copy 0","object_center":[105.000000,105.000000,0.000000],"boundingbox_center":[105.000000,105.000000,12.500000],"boundingbox_size":[71.691597,71.081100,25.000000]}
; Total objects to print: 1
M486 T1
; plater:{"center":[105.000000,105.000000,0.000000],"boundingbox_center":[105.000000,105.000000,12.500000],"boundingbox_size":[71.691597,71.081100,25.000000]}

;TYPE:Custom
M150 I255
M300 S1000 P500
G90 ; use absolute coordinates
M83 ; extruder relative mode
G21 ;Metric values
M73 ;LCD progress info
M140 S60 ; set bed temp
M190 S60 ; wait for bed temp
M300 S1000 P500
M117 Poziomowanie...
G28; home all
G29; Auto bed leveling
M420 S1; Save bed leveling mesh
G1 Z2 F240 ; moving to safe point
G1 X2 Y10 F3000 ; moving to safe point
G1 Z0.28 F240 ; moving to safe point
M117 Rozgrzewanie...
M104 S215 ; set extruder temp
M109 S215 ; wait for extruder temp
M300 S1000 P500
G92 E0.0 ; reset extruder
M117 Anty-blob...
G1 Z2.0 F3000 ; Move Z Axis up little to prevent scratching of Heat Bed
G1 X5 Y20 Z0.3 F5000.0 ; Move over to prevent blob squish
M117 Drukowanie...
M107
G21 ; set units to millimeters
G90 ; use absolute coordinates
M82 ; use absolute distances for extrusion
G92 E0
; Filament gcode
M107
;LAYER_CHANGE
;Z:0.2
;HEIGHT:0.2
;BEFORE_LAYER_CHANGE
;0.2
M117 Warstwa 1 z 125

G1 E-1 F3600
G1 Z0.2 F9000
;AFTER_LAYER_CHANGE
;0.2
G92 E0
M204 P1500
G1 X93.638 Y81.942
G1 E1 F2400
;TYPE:Skirt
;WIDTH:0.48
G1 F1200
G1 X75.04 Y103.195 E1.92377
G1 X73.493 Y105.188 E2.00627
G1 X72.342 Y107.034 E2.07745
G1 X71.249 Y109.302 E2.15979
G1 X70.466 Y111.505 E2.23628
G1 X69.958 Y113.54 E2.30487
G1 X69.653 Y115.614 E2.37343
G1 X69.536 Y118.151 E2.45649
G1 X69.686 Y120.464 E2.53231
G1 X70.085 Y122.79 E2.60951
G1 X70.667 Y124.87 E2.68017
G1 X71.584 Y127.203 E2.76216
G1 X72.685 Y129.291 E2.83936
G1 X73.996 Y131.247 E2.91638
G1 X75.64 Y133.187 E2.99957
G1 X77.148 Y134.645 E3.06817
G1 X78.792 Y135.945 E3.13673
G1 X80.79 Y137.232 E3.21446
G1 X83.052 Y138.36 E3.29714
G1 X85.419 Y139.216 E3.37948
G1 X87.738 Y139.777 E3.45752
G1 X89.815 Y140.069 E3.52611
G1 X91.951 Y140.157 E3.59603
G1 X117.922 Y140.159 E4.44553
G1 X120.175 Y140.07 E4.51928
G1 X122.262 Y139.777 E4.58819
G1 X124.698 Y139.183 E4.67022
G1 X126.939 Y138.364 E4.74826
G1 X129.034 Y137.335 E4.8246
G1 X131.014 Y136.09 E4.90111
G1 X132.829 Y134.664 E4.97658
G1 X134.522 Y133.021 E5.05377
G1 X136.004 Y131.246 E5.12942
G1 X137.26 Y129.376 E5.20309
G1 X138.295 Y127.447 E5.27468
G1 X139.344 Y124.834 E5.36679
G1 X139.92 Y122.768 E5.43694
G1 X140.328 Y120.306 E5.51859
G1 X140.464 Y118.165 E5.58873
G1 X140.374 Y115.838 E5.6649
G1 X140.043 Y113.544 E5.74071
G1 X139.488 Y111.337 E5.81515
G1 X138.669 Y109.096 E5.89321
G1 X137.64 Y107.001 E5.96954
G1 X136.392 Y105.017 E6.04622
G1 X134.956 Y103.191 E6.12219
G1 X108.485 Y72.944 E7.43692
G1 X107.718 Y72.299 E7.4697
G1 X106.828 Y71.838 E7.50249
G1 X105.879 Y71.588 E7.53459
G1 X104.805 Y71.533 E7.56974
G1 X103.876 Y71.628 E7.6003
G1 X102.991 Y71.91 E7.63069
G1 X102.182 Y72.366 E7.66107
G1 X101.483 Y72.978 E7.69146
G1 X93.678 Y81.897 E8.07911
G1 X93.842 Y82.041 F9000
M204 P500
G1 X94.007 Y82.184
G1 F1200
G1 X75.37 Y103.482 E9.00477
G1 X73.86 Y105.426 E9.08531
G1 X72.727 Y107.24 E9.15525
G1 X71.657 Y109.458 E9.23579
G1 X70.947 Y111.406 E9.3036
G1 X70.434 Y113.415 E9.37146
G1 X70.085 Y115.68 E9.4464
G1 X69.973 Y118.15 E9.52727
G1 X70.122 Y120.423 E9.60178
G1 X70.512 Y122.698 E9.67727
G1 X71.089 Y124.757 E9.74721
G1 X71.991 Y127.042 E9.82759
G1 X73.152 Y129.214 E9.90814
G1 X74.463 Y131.131 E9.9841
G1 X75.795 Y132.72 E10.05191
G1 X77.278 Y134.17 E10.11976
G1 X79.213 Y135.715 E10.20075
G1 X81.166 Y136.946 E10.27625
G1 X83.242 Y137.966 E10.3519
G1 X85.544 Y138.797 E10.43195
G1 X87.589 Y139.308 E10.50091
G1 X89.641 Y139.609 E10.56876
G1 X91.967 Y139.72 E10.64493
G1 X117.924 Y139.722 E11.49394
G1 X120.135 Y139.635 E11.56633
G1 X122.199 Y139.344 E11.63451
G1 X124.58 Y138.762 E11.71469
G1 X126.771 Y137.96 E11.79099
G1 X128.825 Y136.951 E11.86583
G1 X130.765 Y135.73 E11.94083
G1 X132.545 Y134.332 E12.01485
G1 X134.201 Y132.725 E12.09034
G1 X135.657 Y130.98 E12.16469
G1 X136.888 Y129.147 E12.23689
G1 X137.91 Y127.24 E12.30765
G1 X138.923 Y124.715 E12.39666
G1 X139.493 Y122.674 E12.46595
G1 X139.893 Y120.27 E12.54568
G1 X140.027 Y118.161 E12.61479
G1 X139.938 Y115.88 E12.68947
G1 X139.615 Y113.63 E12.76382
G1 X139.067 Y111.455 E12.83718
G1 X138.266 Y109.264 E12.91349
G1 X137.256 Y107.21 E12.98833
G1 X136.035 Y105.27 E13.06333
G1 X134.63 Y103.482 E13.1377
G1 X108.175 Y73.253 E14.45164
G1 X107.478 Y72.664 E14.48149
G1 X106.662 Y72.243 E14.51151
G1 X105.798 Y72.018 E14.54071
G1 X104.807 Y71.97 E14.57319
G1 X103.968 Y72.055 E14.60077
G1 X103.164 Y72.311 E14.62835
G1 X102.43 Y72.726 E14.65593
G1 X101.797 Y73.282 E14.6835
G1 X94.046 Y82.139 E15.06848
M204 P1500
G1 X94.21 Y82.283 F9000
M204 P500
G1 X94.375 Y82.427
G1 F1200
G1 X75.701 Y103.768 E15.99602
G1 X74.226 Y105.664 E16.0746
G1 X73.113 Y107.446 E16.14331
G1 X72.068 Y109.609 E16.22189
G1 X71.313 Y111.72 E16.29522
G1 X70.816 Y113.707 E16.36222
G1 X70.518 Y115.738 E16.42938
G1 X70.41 Y118.148 E16.50827
G1 X70.556 Y120.376 E16.58131
G1 X70.939 Y122.605 E16.65527
G1 X71.51 Y124.641 E16.72444
G1 X72.387 Y126.857 E16.8024
G1 X73.519 Y128.976 E16.88099
G1 X74.799 Y130.851 E16.95524
G1 X76.114 Y132.422 E17.02225
G1 X77.587 Y133.86 E17.08957
G1 X79.473 Y135.363 E17.16845
G1 X81.382 Y136.566 E17.24226
G1 X83.411 Y137.563 E17.31621
G1 X85.666 Y138.377 E17.39464
G1 X87.672 Y138.879 E17.46227
G1 X89.704 Y139.177 E17.52943
G1 X91.978 Y139.283 E17.60392
G1 X117.92 Y139.285 E18.45245
G1 X120.099 Y139.199 E18.52378
G1 X122.137 Y138.912 E18.59109
G1 X124.466 Y138.34 E18.66952
G1 X126.602 Y137.557 E18.74394
G1 X128.61 Y136.57 E18.81713
G1 X130.512 Y135.374 E18.89063
G1 X132.26 Y134 E18.96335
G1 X133.883 Y132.425 E19.03731
G1 X135.31 Y130.714 E19.11019
G1 X136.515 Y128.919 E19.18092
G1 X137.527 Y127.031 E19.25099
G1 X138.503 Y124.595 E19.3368
G1 X139.065 Y122.586 E19.40505
G1 X139.457 Y120.235 E19.48301
G1 X139.59 Y118.157 E19.5511
G1 X139.503 Y115.917 E19.62445
G1 X139.185 Y113.711 E19.69732
G1 X138.646 Y111.569 E19.76958
G1 X137.862 Y109.433 E19.84401
G1 X136.875 Y107.425 E19.91719
G1 X135.679 Y105.523 E19.99069
G1 X134.307 Y103.776 E20.06333
G1 X107.865 Y73.561 E21.37667
G1 X107.231 Y73.025 E21.4038
G1 X106.493 Y72.646 E21.43094
G1 X105.717 Y72.447 E21.45715
G1 X104.803 Y72.407 E21.48706
G1 X104.053 Y72.484 E21.51174
G1 X103.334 Y72.714 E21.53642
G1 X102.678 Y73.086 E21.56109
G1 X102.109 Y73.589 E21.58592
G1 X94.414 Y82.382 E21.96811
M204 P1500
G1 X94.579 Y82.526 F9000
M204 P500
G1 X94.743 Y82.669
G1 F1200
G1 X76.031 Y104.053 E22.89752
G1 X74.593 Y105.902 E22.97413
G1 X73.497 Y107.655 E23.04178
G1 X72.478 Y109.76 E23.11825
G1 X71.782 Y111.665 E23.18459
G1 X71.281 Y113.63 E23.25092
G1 X70.95 Y115.805 E23.3229
G1 X70.847 Y118.145 E23.39951
G1 X70.991 Y120.333 E23.47122
G1 X71.366 Y122.51 E23.54349
G1 X71.93 Y124.519 E23.61172
G1 X72.785 Y126.676 E23.68761
G1 X73.885 Y128.738 E23.76409
G1 X75.135 Y130.572 E23.83664
G1 X76.437 Y132.126 E23.90298
G1 X77.891 Y133.546 E23.96946
G1 X79.727 Y135.008 E24.04622
G1 X81.597 Y136.185 E24.1185
G1 X83.58 Y137.16 E24.19078
G1 X85.783 Y137.956 E24.26739
G1 X87.759 Y138.451 E24.33402
G1 X89.766 Y138.744 E24.40036
G1 X91.994 Y138.846 E24.4733
G1 X117.921 Y138.848 E25.32136
G1 X120.058 Y138.764 E25.39132
G1 X122.075 Y138.479 E25.45794
G1 X124.345 Y137.92 E25.53442
G1 X126.432 Y137.155 E25.60712
G1 X128.399 Y136.187 E25.67883
G1 X130.262 Y135.015 E25.75082
G1 X131.979 Y133.666 E25.82223
G1 X133.564 Y132.126 E25.89451
G1 X134.962 Y130.45 E25.96592
G1 X136.139 Y128.695 E26.03503
G1 X137.141 Y126.826 E26.10438
G1 X138.084 Y124.472 E26.18735
G1 X138.637 Y122.497 E26.25441
G1 X139.021 Y120.205 E26.33045
G1 X139.153 Y118.154 E26.39765
G1 X139.068 Y115.959 E26.46951
G1 X138.756 Y113.794 E26.54106
G1 X138.225 Y111.69 E26.61203
G1 X137.461 Y109.607 E26.6846
G1 X136.493 Y107.636 E26.75645
G1 X135.32 Y105.773 E26.82844
G1 X133.98 Y104.067 E26.89941
G1 X107.554 Y73.868 E28.21197
G1 X106.987 Y73.388 E28.23627
G1 X106.325 Y73.05 E28.26058
G1 X105.634 Y72.877 E28.28387
G1 X104.806 Y72.844 E28.31099
G1 X104.141 Y72.912 E28.33284
G1 X103.505 Y73.116 E28.35469
G1 X102.925 Y73.447 E28.37654
G1 X102.425 Y73.89 E28.39839
G1 X94.783 Y82.624 E28.778
; INIT printing object SecretHeart.stl id:0 copy 0
G92 E0
G1 E-0.7 F3600
;WIPE_START
G1 F7200
G1 X94.387 Y83.076 E-0.985
;WIPE_END
G1 E-1 F3600
; printing object SecretHeart.stl id:0 copy 0
M486 S0
M204 P1500
G1 X100.245 Y105.889 F9000
M204 P500
G1 X106.103 Y128.703
G1 E0 F2400
;TYPE:Internal perimeter
;WIDTH:0.564
G1 F1200
G1 X107.135 Y128.703 E0.04026
G1 X106.98 Y129.334 E0.06562
G1 X107.103 Y129.833 E0.08565
G1 X106.771 Y130.017 E0.10045
G1 X106.103 Y129.324 E0.13796
G1 X106.103 Y128.763 E0.15985
M204 P1500
G1 X105.843 Y128.472 F9000
M204 P500
G1 X105.582 Y128.182
;TYPE:External perimeter
G1 F1200
G1 X107.618 Y128.182 E0.23924
G1 X107.618 Y128.923 E0.26813
G1 X107.517 Y129.334 E0.28466
G1 X107.62 Y129.752 E0.30144
G1 X107.652 Y130.542 E0.33227
G1 X107.718 Y130.943 E0.34813
G1 X107.718 Y131.622 E0.37461
G1 X107.134 Y131.136 E0.40425
G1 X106.83 Y130.796 E0.42203
G1 X106.498 Y130.484 E0.4398
G1 X105.582 Y129.535 E0.49124
G1 X105.582 Y128.242 E0.54165
;WIPE_START
G1 X105.928 Y128.382 F9000
;WIPE_END
G92 E0
G1 E-0.7 F3600
;WIPE_START
G1 F7200
G1 X106.528 Y128.382 E-0.985
;WIPE_END
G1 E-1 F3600
M204 P1500
G1 X109.116 Y128.542 F9000
M204 P500
G1 X111.703 Y128.703
G1 E0 F2400
;TYPE:Internal perimeter
G1 F1200
G1 X124.697 Y128.703 E0.5067
G1 X124.697 Y132.661 E0.66104
G1 X124.918 Y132.654 E0.66963
G1 X125.013 Y133.042 E0.68521
G1 X124.731 Y133.181 E0.69749
G1 X123.093 Y133.783 E0.76552
G1 X121.402 Y134.21 E0.83353
G1 X119.676 Y134.458 E0.90154
G1 X117.933 Y134.525 E0.96954
G1 X116.193 Y134.409 E1.03755
G1 X114.475 Y134.112 E1.10556
G1 X112.797 Y133.636 E1.17357
G1 X111.344 Y133.055 E1.2346
G1 X111.427 Y132.65 E1.25073
G1 X111.703 Y132.656 E1.2615
G1 X111.703 Y128.763 E1.41331
G92 E0
G1 E-0.7 F3600
;WIPE_START
G1 F7200
G1 X112.303 Y128.76 E-0.985
;WIPE_END
G1 E-1 F3600
M204 P1500
G1 X111.742 Y130.441 F9000
M204 P500
G1 X111.182 Y132.123
G1 E0 F2400
;TYPE:External perimeter
G1 F1200
G1 X111.182 Y128.182 E0.15367
G1 X125.218 Y128.182 E0.70101
G1 X125.218 Y132.124 E0.85474
G1 X126.556 Y132.085 E0.90692
G1 X127.019 Y132.024 E0.92515
G1 X128.086 Y132.018 E0.96674
G1 X127.377 Y132.464 E0.99943
G1 X124.936 Y133.66 E1.10542
G1 X123.247 Y134.281 E1.17557
G1 X121.504 Y134.722 E1.2457
G1 X119.723 Y134.978 E1.31584
G1 X117.926 Y135.047 E1.38598
G1 X116.131 Y134.927 E1.45612
G1 X114.359 Y134.62 E1.52626
G1 X112.628 Y134.13 E1.59639
G1 X110.958 Y133.462 E1.66654
G1 X110.157 Y133.041 E1.70181
G1 X108.93 Y132.45 E1.75493
G1 X108.283 Y132.016 E1.78533
G1 X108.922 Y132.016 E1.81026
G1 X109.852 Y132.091 E1.84665
G1 X111.122 Y132.121 E1.89618
;WIPE_START
G1 X111.582 Y132.126 F9000
;WIPE_END
G92 E0
G1 E-0.7 F3600
;WIPE_START
G1 F7200
G1 X111.55 Y131.527 E-0.985
;WIPE_END
G1 E-1 F3600
M204 P1500
G1 X120.435 Y130.631 F9000
M204 P500
G1 X129.321 Y129.735
G1 E0 F2400
;TYPE:Internal perimeter
G1 F1200
G1 X129.42 Y129.335 E0.01606
G1 X129.264 Y128.701 E0.0415
G1 X130.834 Y128.698 E0.10269
G1 X130.403 Y129.179 E0.12788
G1 X129.646 Y129.92 E0.16917
G1 X129.373 Y129.764 E0.18142
M204 P1500
G1 X129.078 Y128.973 F9000
M204 P500
G1 X128.782 Y128.181
;TYPE:External perimeter
G1 F1200
G1 X130.285 Y128.178 E0.24004
G1 X130.767 Y128.16 E0.25882
G1 X131.701 Y128.082 E0.29539
G1 X132.011 Y128.082 E0.30749
G1 X131.719 Y128.562 E0.32939
G1 X131.393 Y128.855 E0.34648
G1 X130.779 Y129.54 E0.38236
G1 X129.799 Y130.5 E0.43586
G1 X129.184 Y131.161 E0.47106
G1 X128.682 Y131.556 E0.49599
G1 X128.682 Y130.943 E0.5199
G1 X128.746 Y130.542 E0.53574
G1 X128.78 Y129.753 E0.56653
G1 X128.883 Y129.334 E0.58333
G1 X128.782 Y128.923 E0.59987
G1 X128.782 Y128.241 E0.62644
;WIPE_START
G1 X129.129 Y128.381 F9000
;WIPE_END
M204 P1500
G1 X129.26 Y129.216
M204 P500
G1 X129.392 Y130.052
;TYPE:Gap fill
;WIDTH:0.77933
G1 F1200
G1 X129.347 Y130.146 E0.63218
;WIDTH:0.661001
G1 X129.274 Y130.304 E0.64023
;WIDTH:0.547066
G1 X129.207 Y130.466 E0.64684
;WIDTH:0.41602
G1 X129.153 Y130.593 E0.65069
;WIDTH:0.336997
G1 X129.068 Y130.767 E0.65496
;WIDTH:0.201371
G1 X128.983 Y130.942 E0.65727
;WIDTH:0.133381
G1 X128.904 Y131.076 E0.65832
G92 E0
G1 E-0.7 F3600
;WIPE_START
G1 F7200
G1 X128.983 Y130.942 E-0.77381
;WIPE_END
G1 E-1 F3600
M204 P1500
G1 X128.014 Y131.625 F9000
M204 P500
G1 X127.046 Y132.308
G1 E0 F2400
;WIDTH:0.148442
G1 F1200
G1 X126.893 Y132.355 E0.00126
;WIDTH:0.196474
G1 X126.793 Y132.385 E0.00247
;WIDTH:0.241739
G1 X126.692 Y132.415 E0.00403
;WIDTH:0.291529
G1 X126.591 Y132.446 E0.00599
G1 X126.475 Y132.475 E0.00822
;WIDTH:0.342112
G1 X126.371 Y132.501 E0.01061
;WIDTH:0.392448
G1 X126.267 Y132.526 E0.01341
;WIDTH:0.442785
G1 X126.163 Y132.552 E0.01662
;WIDTH:0.493122
G1 X126.059 Y132.578 E0.02023
;WIDTH:0.543458
G1 X125.955 Y132.603 E0.02424
;WIDTH:0.593795
G1 X125.851 Y132.629 E0.02865
;WIDTH:0.644131
G1 X125.747 Y132.655 E0.03347
;WIDTH:0.694468
G1 X125.643 Y132.681 E0.03869
;WIDTH:0.772831
G1 X125.539 Y132.706 E0.04454
G1 X125.369 Y132.748 E0.05413
;WIDTH:0.884939
G1 X125.199 Y132.791 E0.06518
G92 E0
G1 E-0.7 F3600
;WIPE_START
G1 F7200
G1 X125.369 Y132.748 E-0.78335
;WIPE_END
G1 E-1 F3600
M204 P1500
G1 X124.955 Y131.331 F9000
M204 P500
G1 X124.541 Y129.913
G1 E0 F2400
;TYPE:Solid infill
;WIDTH:0.556636
G1 F1200
G1 X123.711 Y129.083 E0.04514
G1 X122.975 Y129.083 E0.0735
G1 X124.317 Y130.426 E0.14656
G1 X124.317 Y131.163 E0.17492
G1 X122.238 Y129.083 E0.28809
G1 X121.501 Y129.083 E0.31645
G1 X124.317 Y131.899 E0.46973
G1 X124.317 Y132.636 E0.49809
G1 X120.764 Y129.083 E0.69148
G1 X120.027 Y129.083 E0.71984
G1 X123.991 Y133.047 E0.93559
G1 X123.452 Y133.245 E0.95769
G1 X119.29 Y129.083 E1.18422
G1 X118.553 Y129.083 E1.21259
G1 X122.907 Y133.437 E1.44957
G1 X122.319 Y133.586 E1.47292
G1 X117.816 Y129.083 E1.71799
G1 X117.079 Y129.083 E1.74635
G1 X121.731 Y133.735 E1.99952
G1 X121.328 Y133.836 E2.01549
G1 X121.125 Y133.866 E2.02341
G1 X116.342 Y129.083 E2.28371
G1 X115.605 Y129.083 E2.31207
G1 X120.48 Y133.958 E2.57741
G1 X119.836 Y134.051 E2.60246
G1 X114.868 Y129.083 E2.87284
G1 X114.132 Y129.083 E2.9012
G1 X119.146 Y134.098 E3.17414
G1 X118.436 Y134.125 E3.20148
G1 X113.395 Y129.083 E3.47589
G1 X112.658 Y129.083 E3.50425
G1 X117.703 Y134.128 E3.77884
G1 X116.913 Y134.076 E3.80929
G1 X112.083 Y129.246 E4.07216
G1 X112.083 Y129.983 E4.10052
G1 X116.109 Y134.008 E4.31962
G1 X115.218 Y133.854 E4.35442
G1 X112.083 Y130.72 E4.52502
G1 X112.083 Y131.456 E4.55338
G1 X114.291 Y133.664 E4.67355
G1 X113.263 Y133.373 E4.71467
G1 X112.083 Y132.193 E4.77888
G1 X112.083 Y132.93 E4.80724
G1 X112.503 Y133.351 E4.83011
M204 P1500
G1 X111.828 Y133.069 F9000
M204 P500
G1 X111.153 Y132.788
;TYPE:Gap fill
;WIDTH:0.919815
G1 F1200
G1 X111.014 Y132.757 E4.83944
;WIDTH:0.824784
G1 X110.876 Y132.725 E4.84776
;WIDTH:0.753511
G1 X110.807 Y132.709 E4.85154
G1 X110.638 Y132.666 E4.86081
;WIDTH:0.629271
G1 X110.469 Y132.622 E4.86847
;WIDTH:0.554547
G1 X110.376 Y132.598 E4.87215
G1 X110.196 Y132.555 E4.87923
;WIDTH:0.433566
G1 X110.016 Y132.511 E4.88464
;WIDTH:0.338744
G1 X109.829 Y132.466 E4.88891
G1 X109.722 Y132.437 E4.89136
;WIDTH:0.259193
G1 X109.615 Y132.408 E4.89315
;WIDTH:0.2052
G1 X109.508 Y132.379 E4.89449
;WIDTH:0.148199
G1 X109.349 Y132.336 E4.89579
G92 E0
G1 E-0.7 F3600
;WIPE_START
G1 F7200
G1 X109.508 Y132.379 E-0.77824
;WIPE_END
G1 E-1 F3600
M204 P1500
G1 X108.493 Y131.744 F9000
M204 P500
G1 X107.478 Y131.109
G1 E0 F2400
;WIDTH:0.142872
G1 F1200
G1 X107.412 Y130.968 E0.00117
;WIDTH:0.205478
